(inkbrush_8x8_finish.nc)
(CAUSTICFORGE v1.3  caustic acrylic)
(Generated: 2026-03-17 21:50)
(Object: inkbrush_8x8  Grid: 513x513)
(Stock: 8.0000" x 8.0000" x 1.0000")
(Caustic relief: 0.07712" = 1.959mm  Cut depth: 0.08098")
(Base slab detected and ignored — caustic surface only)
(Scale: uniform ✓  dZ/dXY ratio preserved — caustic optics intact)
(Roughing: 1/4" Ball Nose 2-Flute  stepover: 0.1000")
(Finishing: 1/4" Ball Nose 2-Flute  stepover: 0.10000")
(Speed mode: NORMAL)
(Machine: Blue Elephant 1325 / NK105  F on every G01  no G00)
(Zero: front-left corner of stock, Z=0 at dome peak)
G54
G20
G17 G90

(=== ROUGHING PASS ===)
(Bit: 1/4" Ball Nose 2-Flute)
(Strategy: Y-raster  DOC: 0.1000"  Stepover: 0.1500"  (60% dia))
(Skin left for finish: 0.0150"  Rough floor: -0.0660")
(Feed: 144.0 IPM  Plunge: 20.0 IPM  RPM: 18000)
(Speed mode: NORMAL  Z levels: 1  Y rows/level: 54)
(Edge-entry only — no plunges into stock)
M03 S18000
G01 Z0.2000 F180.0

(--- Z level -0.0660" ---)
G01 X-0.3000 Y0.0000 F180.0  (row Y=0.000)
G01 Z-0.0660 F20.0  (entry plunge (outside stock))
G01 X-0.3000 Y0.0000 Z-0.0660 F144.0
G01 X-0.2844 Y0.0000 Z-0.0660 F144.0
G01 X-0.2687 Y0.0000 Z-0.0660 F144.0
G01 X-0.2531 Y0.0000 Z-0.0660 F144.0
G01 X-0.2375 Y0.0000 Z-0.0660 F144.0
G01 X-0.2218 Y0.0000 Z-0.0660 F144.0
G01 X-0.2062 Y0.0000 Z-0.0660 F144.0
G01 X-0.1905 Y0.0000 Z-0.0660 F144.0
G01 X-0.1749 Y0.0000 Z-0.0660 F144.0
G01 X-0.1593 Y0.0000 Z-0.0660 F144.0
G01 X-0.1436 Y0.0000 Z-0.0660 F144.0
G01 X-0.1280 Y0.0000 Z-0.0660 F144.0
G01 X-0.1124 Y0.0000 Z-0.0660 F144.0
G01 X-0.0967 Y0.0000 Z-0.0660 F144.0
G01 X-0.0811 Y0.0000 Z-0.0660 F144.0
G01 X-0.0655 Y0.0000 Z-0.0660 F144.0
G01 X-0.0498 Y0.0000 Z-0.0660 F144.0
G01 X-0.0342 Y0.0000 Z-0.0660 F144.0
G01 X-0.0185 Y0.0000 Z-0.0660 F144.0
G01 X-0.0029 Y0.0000 Z-0.0660 F144.0
G01 X0.0127 Y0.0000 Z-0.0660 F144.0
G01 X0.0284 Y0.0000 Z-0.0660 F144.0
G01 X0.0440 Y0.0000 Z-0.0660 F144.0
G01 X0.0596 Y0.0000 Z-0.0660 F144.0
G01 X0.0753 Y0.0000 Z-0.0660 F144.0
G01 X0.0909 Y0.0000 Z-0.0660 F144.0
G01 X0.1065 Y0.0000 Z-0.0660 F144.0
G01 X0.1222 Y0.0000 Z-0.0660 F144.0
G01 X0.1378 Y0.0000 Z-0.0660 F144.0
G01 X0.1535 Y0.0000 Z-0.0660 F144.0
G01 X0.1691 Y0.0000 Z-0.0660 F144.0
G01 X0.1847 Y0.0000 Z-0.0660 F144.0
G01 X0.2004 Y0.0000 Z-0.0660 F144.0
G01 X0.2160 Y0.0000 Z-0.0660 F144.0
G01 X0.2316 Y0.0000 Z-0.0660 F144.0
G01 X0.2473 Y0.0000 Z-0.0660 F144.0
G01 X0.2629 Y0.0000 Z-0.0660 F144.0
G01 X0.2785 Y0.0000 Z-0.0660 F144.0
G01 X0.2942 Y0.0000 Z-0.0660 F144.0
G01 X0.3098 Y0.0000 Z-0.0660 F144.0
G01 X0.3255 Y0.0000 Z-0.0660 F144.0
G01 X0.3411 Y0.0000 Z-0.0660 F144.0
G01 X0.3567 Y0.0000 Z-0.0660 F144.0
G01 X0.3724 Y0.0000 Z-0.0660 F144.0
G01 X0.3880 Y0.0000 Z-0.0660 F144.0
G01 X0.4036 Y0.0000 Z-0.0660 F144.0
G01 X0.4193 Y0.0000 Z-0.0660 F144.0
G01 X0.4349 Y0.0000 Z-0.0660 F144.0
G01 X0.4505 Y0.0000 Z-0.0660 F144.0
G01 X0.4662 Y0.0000 Z-0.0660 F144.0
G01 X0.4818 Y0.0000 Z-0.0660 F144.0
G01 X0.4975 Y0.0000 Z-0.0660 F144.0
G01 X0.5131 Y0.0000 Z-0.0660 F144.0
G01 X0.5287 Y0.0000 Z-0.0660 F144.0
G01 X0.5444 Y0.0000 Z-0.0660 F144.0
G01 X0.5600 Y0.0000 Z-0.0660 F144.0
G01 X0.5756 Y0.0000 Z-0.0660 F144.0
G01 X0.5913 Y0.0000 Z-0.0660 F144.0
G01 X0.6069 Y0.0000 Z-0.0660 F144.0
G01 X0.6225 Y0.0000 Z-0.0660 F144.0
G01 X0.6382 Y0.0000 Z-0.0660 F144.0
G01 X0.6538 Y0.0000 Z-0.0660 F144.0
G01 X0.6695 Y0.0000 Z-0.0660 F144.0
G01 X0.6851 Y0.0000 Z-0.0660 F144.0
G01 X0.7007 Y0.0000 Z-0.0660 F144.0
G01 X0.7164 Y0.0000 Z-0.0660 F144.0
G01 X0.7320 Y0.0000 Z-0.0660 F144.0
G01 X0.7476 Y0.0000 Z-0.0660 F144.0
G01 X0.7633 Y0.0000 Z-0.0660 F144.0
G01 X0.7789 Y0.0000 Z-0.0660 F144.0
G01 X0.7945 Y0.0000 Z-0.0660 F144.0
G01 X0.8102 Y0.0000 Z-0.0660 F144.0
G01 X0.8258 Y0.0000 Z-0.0660 F144.0
G01 X0.8415 Y0.0000 Z-0.0660 F144.0
G01 X0.8571 Y0.0000 Z-0.0660 F144.0
G01 X0.8727 Y0.0000 Z-0.0660 F144.0
G01 X0.8884 Y0.0000 Z-0.0660 F144.0
G01 X0.9040 Y0.0000 Z-0.0660 F144.0
G01 X0.9196 Y0.0000 Z-0.0660 F144.0
G01 X0.9353 Y0.0000 Z-0.0660 F144.0
G01 X0.9509 Y0.0000 Z-0.0660 F144.0
G01 X0.9665 Y0.0000 Z-0.0660 F144.0
G01 X0.9822 Y0.0000 Z-0.0660 F144.0
G01 X0.9978 Y0.0000 Z-0.0660 F144.0
G01 X1.0135 Y0.0000 Z-0.0660 F144.0
G01 X1.0291 Y0.0000 Z-0.0660 F144.0
G01 X1.0447 Y0.0000 Z-0.0660 F144.0
G01 X1.0604 Y0.0000 Z-0.0660 F144.0
G01 X1.0760 Y0.0000 Z-0.0660 F144.0
G01 X1.0916 Y0.0000 Z-0.0660 F144.0
G01 X1.1073 Y0.0000 Z-0.0660 F144.0
G01 X1.1229 Y0.0000 Z-0.0660 F144.0
G01 X1.1385 Y0.0000 Z-0.0660 F144.0
G01 X1.1542 Y0.0000 Z-0.0660 F144.0
G01 X1.1698 Y0.0000 Z-0.0660 F144.0
G01 X1.1855 Y0.0000 Z-0.0660 F144.0
G01 X1.2011 Y0.0000 Z-0.0660 F144.0
G01 X1.2167 Y0.0000 Z-0.0660 F144.0
G01 X1.2324 Y0.0000 Z-0.0660 F144.0
G01 X1.2480 Y0.0000 Z-0.0660 F144.0
G01 X1.2636 Y0.0000 Z-0.0660 F144.0
G01 X1.2793 Y0.0000 Z-0.0660 F144.0
G01 X1.2949 Y0.0000 Z-0.0660 F144.0
G01 X1.3105 Y0.0000 Z-0.0660 F144.0
G01 X1.3262 Y0.0000 Z-0.0660 F144.0
G01 X1.3418 Y0.0000 Z-0.0660 F144.0
G01 X1.3575 Y0.0000 Z-0.0660 F144.0
G01 X1.3731 Y0.0000 Z-0.0660 F144.0
G01 X1.3887 Y0.0000 Z-0.0660 F144.0
G01 X1.4044 Y0.0000 Z-0.0660 F144.0
G01 X1.4200 Y0.0000 Z-0.0660 F144.0
G01 X1.4356 Y0.0000 Z-0.0660 F144.0
G01 X1.4513 Y0.0000 Z-0.0660 F144.0
G01 X1.4669 Y0.0000 Z-0.0660 F144.0
G01 X1.4825 Y0.0000 Z-0.0660 F144.0
G01 X1.4982 Y0.0000 Z-0.0660 F144.0
G01 X1.5138 Y0.0000 Z-0.0660 F144.0
G01 X1.5295 Y0.0000 Z-0.0660 F144.0
G01 X1.5451 Y0.0000 Z-0.0660 F144.0
G01 X1.5607 Y0.0000 Z-0.0660 F144.0
G01 X1.5764 Y0.0000 Z-0.0660 F144.0
G01 X1.5920 Y0.0000 Z-0.0660 F144.0
G01 X1.6076 Y0.0000 Z-0.0660 F144.0
G01 X1.6233 Y0.0000 Z-0.0660 F144.0
G01 X1.6389 Y0.0000 Z-0.0660 F144.0
G01 X1.6545 Y0.0000 Z-0.0660 F144.0
G01 X1.6702 Y0.0000 Z-0.0660 F144.0
G01 X1.6858 Y0.0000 Z-0.0660 F144.0
G01 X1.7015 Y0.0000 Z-0.0660 F144.0
G01 X1.7171 Y0.0000 Z-0.0660 F144.0
G01 X1.7327 Y0.0000 Z-0.0660 F144.0
G01 X1.7484 Y0.0000 Z-0.0660 F144.0
G01 X1.7640 Y0.0000 Z-0.0660 F144.0
G01 X1.7796 Y0.0000 Z-0.0660 F144.0
G01 X1.7953 Y0.0000 Z-0.0660 F144.0
G01 X1.8109 Y0.0000 Z-0.0660 F144.0
G01 X1.8265 Y0.0000 Z-0.0660 F144.0
G01 X1.8422 Y0.0000 Z-0.0660 F144.0
G01 X1.8578 Y0.0000 Z-0.0660 F144.0
G01 X1.8735 Y0.0000 Z-0.0660 F144.0
G01 X1.8891 Y0.0000 Z-0.0660 F144.0
G01 X1.9047 Y0.0000 Z-0.0660 F144.0
G01 X1.9204 Y0.0000 Z-0.0660 F144.0
G01 X1.9360 Y0.0000 Z-0.0660 F144.0
G01 X1.9516 Y0.0000 Z-0.0660 F144.0
G01 X1.9673 Y0.0000 Z-0.0660 F144.0
G01 X1.9829 Y0.0000 Z-0.0660 F144.0
G01 X1.9985 Y0.0000 Z-0.0660 F144.0
G01 X2.0142 Y0.0000 Z-0.0660 F144.0
G01 X2.0298 Y0.0000 Z-0.0660 F144.0
G01 X2.0455 Y0.0000 Z-0.0660 F144.0
G01 X2.0611 Y0.0000 Z-0.0660 F144.0
G01 X2.0767 Y0.0000 Z-0.0660 F144.0
G01 X2.0924 Y0.0000 Z-0.0660 F144.0
G01 X2.1080 Y0.0000 Z-0.0660 F144.0
G01 X2.1236 Y0.0000 Z-0.0660 F144.0
G01 X2.1393 Y0.0000 Z-0.0660 F144.0
G01 X2.1549 Y0.0000 Z-0.0660 F144.0
G01 X2.1705 Y0.0000 Z-0.0660 F144.0
G01 X2.1862 Y0.0000 Z-0.0660 F144.0
G01 X2.2018 Y0.0000 Z-0.0660 F144.0
G01 X2.2175 Y0.0000 Z-0.0660 F144.0
G01 X2.2331 Y0.0000 Z-0.0660 F144.0
G01 X2.2487 Y0.0000 Z-0.0660 F144.0
G01 X2.2644 Y0.0000 Z-0.0660 F144.0
G01 X2.2800 Y0.0000 Z-0.0660 F144.0
G01 X2.2956 Y0.0000 Z-0.0660 F144.0
G01 X2.3113 Y0.0000 Z-0.0660 F144.0
G01 X2.3269 Y0.0000 Z-0.0660 F144.0
G01 X2.3425 Y0.0000 Z-0.0660 F144.0
G01 X2.3582 Y0.0000 Z-0.0660 F144.0
G01 X2.3738 Y0.0000 Z-0.0660 F144.0
G01 X2.3895 Y0.0000 Z-0.0660 F144.0
G01 X2.4051 Y0.0000 Z-0.0660 F144.0
G01 X2.4207 Y0.0000 Z-0.0660 F144.0
G01 X2.4364 Y0.0000 Z-0.0660 F144.0
G01 X2.4520 Y0.0000 Z-0.0660 F144.0
G01 X2.4676 Y0.0000 Z-0.0660 F144.0
G01 X2.4833 Y0.0000 Z-0.0660 F144.0
G01 X2.4989 Y0.0000 Z-0.0660 F144.0
G01 X2.5145 Y0.0000 Z-0.0660 F144.0
G01 X2.5302 Y0.0000 Z-0.0660 F144.0
G01 X2.5458 Y0.0000 Z-0.0660 F144.0
G01 X2.5615 Y0.0000 Z-0.0660 F144.0
G01 X2.5771 Y0.0000 Z-0.0660 F144.0
G01 X2.5927 Y0.0000 Z-0.0660 F144.0
G01 X2.6084 Y0.0000 Z-0.0660 F144.0
G01 X2.6240 Y0.0000 Z-0.0660 F144.0
G01 X2.6396 Y0.0000 Z-0.0660 F144.0
G01 X2.6553 Y0.0000 Z-0.0660 F144.0
G01 X2.6709 Y0.0000 Z-0.0660 F144.0
G01 X2.6865 Y0.0000 Z-0.0660 F144.0
G01 X2.7022 Y0.0000 Z-0.0660 F144.0
G01 X2.7178 Y0.0000 Z-0.0660 F144.0
G01 X2.7335 Y0.0000 Z-0.0660 F144.0
G01 X2.7491 Y0.0000 Z-0.0660 F144.0
G01 X2.7647 Y0.0000 Z-0.0660 F144.0
G01 X2.7804 Y0.0000 Z-0.0660 F144.0
G01 X2.7960 Y0.0000 Z-0.0660 F144.0
G01 X2.8116 Y0.0000 Z-0.0660 F144.0
G01 X2.8273 Y0.0000 Z-0.0660 F144.0
G01 X2.8429 Y0.0000 Z-0.0660 F144.0
G01 X2.8585 Y0.0000 Z-0.0660 F144.0
G01 X2.8742 Y0.0000 Z-0.0660 F144.0
G01 X2.8898 Y0.0000 Z-0.0660 F144.0
G01 X2.9055 Y0.0000 Z-0.0660 F144.0
G01 X2.9211 Y0.0000 Z-0.0660 F144.0
G01 X2.9367 Y0.0000 Z-0.0660 F144.0
G01 X2.9524 Y0.0000 Z-0.0660 F144.0
G01 X2.9680 Y0.0000 Z-0.0660 F144.0
G01 X2.9836 Y0.0000 Z-0.0660 F144.0
G01 X2.9993 Y0.0000 Z-0.0660 F144.0
G01 X3.0149 Y0.0000 Z-0.0660 F144.0
G01 X3.0305 Y0.0000 Z-0.0660 F144.0
G01 X3.0462 Y0.0000 Z-0.0660 F144.0
G01 X3.0618 Y0.0000 Z-0.0660 F144.0
G01 X3.0775 Y0.0000 Z-0.0660 F144.0
G01 X3.0931 Y0.0000 Z-0.0660 F144.0
G01 X3.1087 Y0.0000 Z-0.0660 F144.0
G01 X3.1244 Y0.0000 Z-0.0660 F144.0
G01 X3.1400 Y0.0000 Z-0.0660 F144.0
G01 X3.1556 Y0.0000 Z-0.0660 F144.0
G01 X3.1713 Y0.0000 Z-0.0660 F144.0
G01 X3.1869 Y0.0000 Z-0.0660 F144.0
G01 X3.2025 Y0.0000 Z-0.0660 F144.0
G01 X3.2182 Y0.0000 Z-0.0660 F144.0
G01 X3.2338 Y0.0000 Z-0.0660 F144.0
G01 X3.2495 Y0.0000 Z-0.0660 F144.0
G01 X3.2651 Y0.0000 Z-0.0660 F144.0
G01 X3.2807 Y0.0000 Z-0.0660 F144.0
G01 X3.2964 Y0.0000 Z-0.0660 F144.0
G01 X3.3120 Y0.0000 Z-0.0660 F144.0
G01 X3.3276 Y0.0000 Z-0.0660 F144.0
G01 X3.3433 Y0.0000 Z-0.0660 F144.0
G01 X3.3589 Y0.0000 Z-0.0660 F144.0
G01 X3.3745 Y0.0000 Z-0.0660 F144.0
G01 X3.3902 Y0.0000 Z-0.0660 F144.0
G01 X3.4058 Y0.0000 Z-0.0660 F144.0
G01 X3.4215 Y0.0000 Z-0.0660 F144.0
G01 X3.4371 Y0.0000 Z-0.0660 F144.0
G01 X3.4527 Y0.0000 Z-0.0660 F144.0
G01 X3.4684 Y0.0000 Z-0.0660 F144.0
G01 X3.4840 Y0.0000 Z-0.0660 F144.0
G01 X3.4996 Y0.0000 Z-0.0660 F144.0
G01 X3.5153 Y0.0000 Z-0.0660 F144.0
G01 X3.5309 Y0.0000 Z-0.0660 F144.0
G01 X3.5465 Y0.0000 Z-0.0660 F144.0
G01 X3.5622 Y0.0000 Z-0.0660 F144.0
G01 X3.5778 Y0.0000 Z-0.0660 F144.0
G01 X3.5935 Y0.0000 Z-0.0660 F144.0
G01 X3.6091 Y0.0000 Z-0.0660 F144.0
G01 X3.6247 Y0.0000 Z-0.0660 F144.0
G01 X3.6404 Y0.0000 Z-0.0660 F144.0
G01 X3.6560 Y0.0000 Z-0.0660 F144.0
G01 X3.6716 Y0.0000 Z-0.0660 F144.0
G01 X3.6873 Y0.0000 Z-0.0660 F144.0
G01 X3.7029 Y0.0000 Z-0.0660 F144.0
G01 X3.7185 Y0.0000 Z-0.0660 F144.0
G01 X3.7342 Y0.0000 Z-0.0660 F144.0
G01 X3.7498 Y0.0000 Z-0.0660 F144.0
G01 X3.7655 Y0.0000 Z-0.0660 F144.0
G01 X3.7811 Y0.0000 Z-0.0660 F144.0
G01 X3.7967 Y0.0000 Z-0.0660 F144.0
G01 X3.8124 Y0.0000 Z-0.0660 F144.0
G01 X3.8280 Y0.0000 Z-0.0660 F144.0
G01 X3.8436 Y0.0000 Z-0.0660 F144.0
G01 X3.8593 Y0.0000 Z-0.0660 F144.0
G01 X3.8749 Y0.0000 Z-0.0660 F144.0
G01 X3.8905 Y0.0000 Z-0.0660 F144.0
G01 X3.9062 Y0.0000 Z-0.0660 F144.0
G01 X3.9218 Y0.0000 Z-0.0660 F144.0
G01 X3.9375 Y0.0000 Z-0.0660 F144.0
G01 X3.9531 Y0.0000 Z-0.0660 F144.0
G01 X3.9687 Y0.0000 Z-0.0660 F144.0
G01 X3.9844 Y0.0000 Z-0.0660 F144.0
G01 X4.0000 Y0.0000 Z-0.0660 F144.0
G01 X4.0156 Y0.0000 Z-0.0660 F144.0
G01 X4.0313 Y0.0000 Z-0.0660 F144.0
G01 X4.0469 Y0.0000 Z-0.0660 F144.0
G01 X4.0625 Y0.0000 Z-0.0660 F144.0
G01 X4.0782 Y0.0000 Z-0.0660 F144.0
G01 X4.0938 Y0.0000 Z-0.0660 F144.0
G01 X4.1095 Y0.0000 Z-0.0660 F144.0
G01 X4.1251 Y0.0000 Z-0.0660 F144.0
G01 X4.1407 Y0.0000 Z-0.0660 F144.0
G01 X4.1564 Y0.0000 Z-0.0660 F144.0
G01 X4.1720 Y0.0000 Z-0.0660 F144.0
G01 X4.1876 Y0.0000 Z-0.0660 F144.0
G01 X4.2033 Y0.0000 Z-0.0660 F144.0
G01 X4.2189 Y0.0000 Z-0.0660 F144.0
G01 X4.2345 Y0.0000 Z-0.0660 F144.0
G01 X4.2502 Y0.0000 Z-0.0660 F144.0
G01 X4.2658 Y0.0000 Z-0.0660 F144.0
G01 X4.2815 Y0.0000 Z-0.0660 F144.0
G01 X4.2971 Y0.0000 Z-0.0660 F144.0
G01 X4.3127 Y0.0000 Z-0.0660 F144.0
G01 X4.3284 Y0.0000 Z-0.0660 F144.0
G01 X4.3440 Y0.0000 Z-0.0660 F144.0
G01 X4.3596 Y0.0000 Z-0.0660 F144.0
G01 X4.3753 Y0.0000 Z-0.0660 F144.0
G01 X4.3909 Y0.0000 Z-0.0660 F144.0
G01 X4.4065 Y0.0000 Z-0.0660 F144.0
G01 X4.4222 Y0.0000 Z-0.0660 F144.0
G01 X4.4378 Y0.0000 Z-0.0660 F144.0
G01 X4.4535 Y0.0000 Z-0.0660 F144.0
G01 X4.4691 Y0.0000 Z-0.0660 F144.0
G01 X4.4847 Y0.0000 Z-0.0660 F144.0
G01 X4.5004 Y0.0000 Z-0.0660 F144.0
G01 X4.5160 Y0.0000 Z-0.0660 F144.0
G01 X4.5316 Y0.0000 Z-0.0660 F144.0
G01 X4.5473 Y0.0000 Z-0.0660 F144.0
G01 X4.5629 Y0.0000 Z-0.0660 F144.0
G01 X4.5785 Y0.0000 Z-0.0660 F144.0
G01 X4.5942 Y0.0000 Z-0.0660 F144.0
G01 X4.6098 Y0.0000 Z-0.0660 F144.0
G01 X4.6255 Y0.0000 Z-0.0660 F144.0
G01 X4.6411 Y0.0000 Z-0.0660 F144.0
G01 X4.6567 Y0.0000 Z-0.0660 F144.0
G01 X4.6724 Y0.0000 Z-0.0660 F144.0
G01 X4.6880 Y0.0000 Z-0.0660 F144.0
G01 X4.7036 Y0.0000 Z-0.0660 F144.0
G01 X4.7193 Y0.0000 Z-0.0660 F144.0
G01 X4.7349 Y0.0000 Z-0.0660 F144.0
G01 X4.7505 Y0.0000 Z-0.0660 F144.0
G01 X4.7662 Y0.0000 Z-0.0660 F144.0
G01 X4.7818 Y0.0000 Z-0.0660 F144.0
G01 X4.7975 Y0.0000 Z-0.0660 F144.0
G01 X4.8131 Y0.0000 Z-0.0660 F144.0
G01 X4.8287 Y0.0000 Z-0.0660 F144.0
G01 X4.8444 Y0.0000 Z-0.0660 F144.0
G01 X4.8600 Y0.0000 Z-0.0660 F144.0
G01 X4.8756 Y0.0000 Z-0.0660 F144.0
G01 X4.8913 Y0.0000 Z-0.0660 F144.0
G01 X4.9069 Y0.0000 Z-0.0660 F144.0
G01 X4.9225 Y0.0000 Z-0.0660 F144.0
G01 X4.9382 Y0.0000 Z-0.0660 F144.0
G01 X4.9538 Y0.0000 Z-0.0660 F144.0
G01 X4.9695 Y0.0000 Z-0.0660 F144.0
G01 X4.9851 Y0.0000 Z-0.0660 F144.0
G01 X5.0007 Y0.0000 Z-0.0660 F144.0
G01 X5.0164 Y0.0000 Z-0.0660 F144.0
G01 X5.0320 Y0.0000 Z-0.0660 F144.0
G01 X5.0476 Y0.0000 Z-0.0660 F144.0
G01 X5.0633 Y0.0000 Z-0.0660 F144.0
G01 X5.0789 Y0.0000 Z-0.0660 F144.0
G01 X5.0945 Y0.0000 Z-0.0660 F144.0
G01 X5.1102 Y0.0000 Z-0.0660 F144.0
G01 X5.1258 Y0.0000 Z-0.0660 F144.0
G01 X5.1415 Y0.0000 Z-0.0660 F144.0
G01 X5.1571 Y0.0000 Z-0.0660 F144.0
G01 X5.1727 Y0.0000 Z-0.0660 F144.0
G01 X5.1884 Y0.0000 Z-0.0660 F144.0
G01 X5.2040 Y0.0000 Z-0.0660 F144.0
G01 X5.2196 Y0.0000 Z-0.0660 F144.0
G01 X5.2353 Y0.0000 Z-0.0660 F144.0
G01 X5.2509 Y0.0000 Z-0.0660 F144.0
G01 X5.2665 Y0.0000 Z-0.0660 F144.0
G01 X5.2822 Y0.0000 Z-0.0660 F144.0
G01 X5.2978 Y0.0000 Z-0.0660 F144.0
G01 X5.3135 Y0.0000 Z-0.0660 F144.0
G01 X5.3291 Y0.0000 Z-0.0660 F144.0
G01 X5.3447 Y0.0000 Z-0.0660 F144.0
G01 X5.3604 Y0.0000 Z-0.0660 F144.0
G01 X5.3760 Y0.0000 Z-0.0660 F144.0
G01 X5.3916 Y0.0000 Z-0.0660 F144.0
G01 X5.4073 Y0.0000 Z-0.0660 F144.0
G01 X5.4229 Y0.0000 Z-0.0660 F144.0
G01 X5.4385 Y0.0000 Z-0.0660 F144.0
G01 X5.4542 Y0.0000 Z-0.0660 F144.0
G01 X5.4698 Y0.0000 Z-0.0660 F144.0
G01 X5.4855 Y0.0000 Z-0.0660 F144.0
G01 X5.5011 Y0.0000 Z-0.0660 F144.0
G01 X5.5167 Y0.0000 Z-0.0660 F144.0
G01 X5.5324 Y0.0000 Z-0.0660 F144.0
G01 X5.5480 Y0.0000 Z-0.0660 F144.0
G01 X5.5636 Y0.0000 Z-0.0660 F144.0
G01 X5.5793 Y0.0000 Z-0.0660 F144.0
G01 X5.5949 Y0.0000 Z-0.0660 F144.0
G01 X5.6105 Y0.0000 Z-0.0660 F144.0
G01 X5.6262 Y0.0000 Z-0.0660 F144.0
G01 X5.6418 Y0.0000 Z-0.0660 F144.0
G01 X5.6575 Y0.0000 Z-0.0660 F144.0
G01 X5.6731 Y0.0000 Z-0.0660 F144.0
G01 X5.6887 Y0.0000 Z-0.0660 F144.0
G01 X5.7044 Y0.0000 Z-0.0660 F144.0
G01 X5.7200 Y0.0000 Z-0.0660 F144.0
G01 X5.7356 Y0.0000 Z-0.0660 F144.0
G01 X5.7513 Y0.0000 Z-0.0660 F144.0
G01 X5.7669 Y0.0000 Z-0.0660 F144.0
G01 X5.7825 Y0.0000 Z-0.0660 F144.0
G01 X5.7982 Y0.0000 Z-0.0660 F144.0
G01 X5.8138 Y0.0000 Z-0.0660 F144.0
G01 X5.8295 Y0.0000 Z-0.0660 F144.0
G01 X5.8451 Y0.0000 Z-0.0660 F144.0
G01 X5.8607 Y0.0000 Z-0.0660 F144.0
G01 X5.8764 Y0.0000 Z-0.0660 F144.0
G01 X5.8920 Y0.0000 Z-0.0660 F144.0
G01 X5.9076 Y0.0000 Z-0.0660 F144.0
G01 X5.9233 Y0.0000 Z-0.0660 F144.0
G01 X5.9389 Y0.0000 Z-0.0660 F144.0
G01 X5.9545 Y0.0000 Z-0.0660 F144.0
G01 X5.9702 Y0.0000 Z-0.0660 F144.0
G01 X5.9858 Y0.0000 Z-0.0660 F144.0
G01 X6.0015 Y0.0000 Z-0.0660 F144.0
G01 X6.0171 Y0.0000 Z-0.0660 F144.0
G01 X6.0327 Y0.0000 Z-0.0660 F144.0
G01 X6.0484 Y0.0000 Z-0.0660 F144.0
G01 X6.0640 Y0.0000 Z-0.0660 F144.0
G01 X6.0796 Y0.0000 Z-0.0660 F144.0
G01 X6.0953 Y0.0000 Z-0.0660 F144.0
G01 X6.1109 Y0.0000 Z-0.0660 F144.0
G01 X6.1265 Y0.0000 Z-0.0660 F144.0
G01 X6.1422 Y0.0000 Z-0.0660 F144.0
G01 X6.1578 Y0.0000 Z-0.0660 F144.0
G01 X6.1735 Y0.0000 Z-0.0660 F144.0
G01 X6.1891 Y0.0000 Z-0.0660 F144.0
G01 X6.2047 Y0.0000 Z-0.0660 F144.0
G01 X6.2204 Y0.0000 Z-0.0660 F144.0
G01 X6.2360 Y0.0000 Z-0.0660 F144.0
G01 X6.2516 Y0.0000 Z-0.0660 F144.0
G01 X6.2673 Y0.0000 Z-0.0660 F144.0
G01 X6.2829 Y0.0000 Z-0.0660 F144.0
G01 X6.2985 Y0.0000 Z-0.0660 F144.0
G01 X6.3142 Y0.0000 Z-0.0660 F144.0
G01 X6.3298 Y0.0000 Z-0.0660 F144.0
G01 X6.3455 Y0.0000 Z-0.0660 F144.0
G01 X6.3611 Y0.0000 Z-0.0660 F144.0
G01 X6.3767 Y0.0000 Z-0.0660 F144.0
G01 X6.3924 Y0.0000 Z-0.0660 F144.0
G01 X6.4080 Y0.0000 Z-0.0660 F144.0
G01 X6.4236 Y0.0000 Z-0.0660 F144.0
G01 X6.4393 Y0.0000 Z-0.0660 F144.0
G01 X6.4549 Y0.0000 Z-0.0660 F144.0
G01 X6.4705 Y0.0000 Z-0.0660 F144.0
G01 X6.4862 Y0.0000 Z-0.0660 F144.0
G01 X6.5018 Y0.0000 Z-0.0660 F144.0
G01 X6.5175 Y0.0000 Z-0.0660 F144.0
G01 X6.5331 Y0.0000 Z-0.0660 F144.0
G01 X6.5487 Y0.0000 Z-0.0660 F144.0
G01 X6.5644 Y0.0000 Z-0.0660 F144.0
G01 X6.5800 Y0.0000 Z-0.0660 F144.0
G01 X6.5956 Y0.0000 Z-0.0660 F144.0
G01 X6.6113 Y0.0000 Z-0.0660 F144.0
G01 X6.6269 Y0.0000 Z-0.0660 F144.0
G01 X6.6425 Y0.0000 Z-0.0660 F144.0
G01 X6.6582 Y0.0000 Z-0.0660 F144.0
G01 X6.6738 Y0.0000 Z-0.0660 F144.0
G01 X6.6895 Y0.0000 Z-0.0660 F144.0
G01 X6.7051 Y0.0000 Z-0.0660 F144.0
G01 X6.7207 Y0.0000 Z-0.0660 F144.0
G01 X6.7364 Y0.0000 Z-0.0660 F144.0
G01 X6.7520 Y0.0000 Z-0.0660 F144.0
G01 X6.7676 Y0.0000 Z-0.0660 F144.0
G01 X6.7833 Y0.0000 Z-0.0660 F144.0
G01 X6.7989 Y0.0000 Z-0.0660 F144.0
G01 X6.8145 Y0.0000 Z-0.0660 F144.0
G01 X6.8302 Y0.0000 Z-0.0660 F144.0
G01 X6.8458 Y0.0000 Z-0.0660 F144.0
G01 X6.8615 Y0.0000 Z-0.0660 F144.0
G01 X6.8771 Y0.0000 Z-0.0660 F144.0
G01 X6.8927 Y0.0000 Z-0.0660 F144.0
G01 X6.9084 Y0.0000 Z-0.0660 F144.0
G01 X6.9240 Y0.0000 Z-0.0660 F144.0
G01 X6.9396 Y0.0000 Z-0.0660 F144.0
G01 X6.9553 Y0.0000 Z-0.0660 F144.0
G01 X6.9709 Y0.0000 Z-0.0660 F144.0
G01 X6.9865 Y0.0000 Z-0.0660 F144.0
G01 X7.0022 Y0.0000 Z-0.0660 F144.0
G01 X7.0178 Y0.0000 Z-0.0660 F144.0
G01 X7.0335 Y0.0000 Z-0.0660 F144.0
G01 X7.0491 Y0.0000 Z-0.0660 F144.0
G01 X7.0647 Y0.0000 Z-0.0660 F144.0
G01 X7.0804 Y0.0000 Z-0.0660 F144.0
G01 X7.0960 Y0.0000 Z-0.0660 F144.0
G01 X7.1116 Y0.0000 Z-0.0660 F144.0
G01 X7.1273 Y0.0000 Z-0.0660 F144.0
G01 X7.1429 Y0.0000 Z-0.0660 F144.0
G01 X7.1585 Y0.0000 Z-0.0660 F144.0
G01 X7.1742 Y0.0000 Z-0.0660 F144.0
G01 X7.1898 Y0.0000 Z-0.0660 F144.0
G01 X7.2055 Y0.0000 Z-0.0660 F144.0
G01 X7.2211 Y0.0000 Z-0.0660 F144.0
G01 X7.2367 Y0.0000 Z-0.0660 F144.0
G01 X7.2524 Y0.0000 Z-0.0660 F144.0
G01 X7.2680 Y0.0000 Z-0.0660 F144.0
G01 X7.2836 Y0.0000 Z-0.0660 F144.0
G01 X7.2993 Y0.0000 Z-0.0660 F144.0
G01 X7.3149 Y0.0000 Z-0.0660 F144.0
G01 X7.3305 Y0.0000 Z-0.0660 F144.0
G01 X7.3462 Y0.0000 Z-0.0660 F144.0
G01 X7.3618 Y0.0000 Z-0.0660 F144.0
G01 X7.3775 Y0.0000 Z-0.0660 F144.0
G01 X7.3931 Y0.0000 Z-0.0660 F144.0
G01 X7.4087 Y0.0000 Z-0.0660 F144.0
G01 X7.4244 Y0.0000 Z-0.0660 F144.0
G01 X7.4400 Y0.0000 Z-0.0660 F144.0
G01 X7.4556 Y0.0000 Z-0.0660 F144.0
G01 X7.4713 Y0.0000 Z-0.0660 F144.0
G01 X7.4869 Y0.0000 Z-0.0660 F144.0
G01 X7.5025 Y0.0000 Z-0.0660 F144.0
G01 X7.5182 Y0.0000 Z-0.0660 F144.0
G01 X7.5338 Y0.0000 Z-0.0660 F144.0
G01 X7.5495 Y0.0000 Z-0.0660 F144.0
G01 X7.5651 Y0.0000 Z-0.0660 F144.0
G01 X7.5807 Y0.0000 Z-0.0660 F144.0
G01 X7.5964 Y0.0000 Z-0.0660 F144.0
G01 X7.6120 Y0.0000 Z-0.0660 F144.0
G01 X7.6276 Y0.0000 Z-0.0660 F144.0
G01 X7.6433 Y0.0000 Z-0.0660 F144.0
G01 X7.6589 Y0.0000 Z-0.0660 F144.0
G01 X7.6745 Y0.0000 Z-0.0660 F144.0
G01 X7.6902 Y0.0000 Z-0.0660 F144.0
G01 X7.7058 Y0.0000 Z-0.0660 F144.0
G01 X7.7215 Y0.0000 Z-0.0660 F144.0
G01 X7.7371 Y0.0000 Z-0.0660 F144.0
G01 X7.7527 Y0.0000 Z-0.0660 F144.0
G01 X7.7684 Y0.0000 Z-0.0660 F144.0
G01 X7.7840 Y0.0000 Z-0.0660 F144.0
G01 X7.7996 Y0.0000 Z-0.0660 F144.0
G01 X7.8153 Y0.0000 Z-0.0660 F144.0
G01 X7.8309 Y0.0000 Z-0.0660 F144.0
G01 X7.8465 Y0.0000 Z-0.0660 F144.0
G01 X7.8622 Y0.0000 Z-0.0660 F144.0
G01 X7.8778 Y0.0000 Z-0.0660 F144.0
G01 X7.8935 Y0.0000 Z-0.0660 F144.0
G01 X7.9091 Y0.0000 Z-0.0660 F144.0
G01 X7.9247 Y0.0000 Z-0.0660 F144.0
G01 X7.9404 Y0.0000 Z-0.0660 F144.0
G01 X7.9560 Y0.0000 Z-0.0660 F144.0
G01 X7.9716 Y0.0000 Z-0.0660 F144.0
G01 X7.9873 Y0.0000 Z-0.0660 F144.0
G01 X8.0029 Y0.0000 Z-0.0660 F144.0
G01 X8.0185 Y0.0000 Z-0.0660 F144.0
G01 X8.0342 Y0.0000 Z-0.0660 F144.0
G01 X8.0498 Y0.0000 Z-0.0660 F144.0
G01 X8.0655 Y0.0000 Z-0.0660 F144.0
G01 X8.0811 Y0.0000 Z-0.0660 F144.0
G01 X8.0967 Y0.0000 Z-0.0660 F144.0
G01 X8.1124 Y0.0000 Z-0.0660 F144.0
G01 X8.1280 Y0.0000 Z-0.0660 F144.0
G01 X8.1436 Y0.0000 Z-0.0660 F144.0
G01 X8.1593 Y0.0000 Z-0.0660 F144.0
G01 X8.1749 Y0.0000 Z-0.0660 F144.0
G01 X8.1905 Y0.0000 Z-0.0660 F144.0
G01 X8.2062 Y0.0000 Z-0.0660 F144.0
G01 X8.2218 Y0.0000 Z-0.0660 F144.0
G01 X8.2375 Y0.0000 Z-0.0660 F144.0
G01 X8.2531 Y0.0000 Z-0.0660 F144.0
G01 X8.2687 Y0.0000 Z-0.0660 F144.0
G01 X8.2844 Y0.0000 Z-0.0660 F144.0
G01 X8.3000 Y0.0000 Z-0.0660 F144.0
G01 Z0.2000 F180.0  (lift)
G01 X8.3000 Y0.1500 F180.0  (row Y=0.150)
G01 Z-0.0660 F20.0  (entry plunge (outside stock))
G01 X8.3000 Y0.1500 Z-0.0660 F144.0
G01 X8.2844 Y0.1500 Z-0.0660 F144.0
G01 X8.2687 Y0.1500 Z-0.0660 F144.0
G01 X8.2531 Y0.1500 Z-0.0660 F144.0
G01 X8.2375 Y0.1500 Z-0.0660 F144.0
G01 X8.2218 Y0.1500 Z-0.0660 F144.0
G01 X8.2062 Y0.1500 Z-0.0660 F144.0
G01 X8.1905 Y0.1500 Z-0.0660 F144.0
G01 X8.1749 Y0.1500 Z-0.0660 F144.0
G01 X8.1593 Y0.1500 Z-0.0660 F144.0
G01 X8.1436 Y0.1500 Z-0.0660 F144.0
G01 X8.1280 Y0.1500 Z-0.0660 F144.0
G01 X8.1124 Y0.1500 Z-0.0660 F144.0
G01 X8.0967 Y0.1500 Z-0.0660 F144.0
G01 X8.0811 Y0.1500 Z-0.0660 F144.0
G01 X8.0655 Y0.1500 Z-0.0660 F144.0
G01 X8.0498 Y0.1500 Z-0.0660 F144.0
G01 X8.0342 Y0.1500 Z-0.0660 F144.0
G01 X8.0185 Y0.1500 Z-0.0660 F144.0
G01 X8.0029 Y0.1500 Z-0.0660 F144.0
G01 X7.9873 Y0.1500 Z0.0000 F144.0
G01 X7.9716 Y0.1500 Z0.0000 F144.0
G01 X7.9560 Y0.1500 Z0.0000 F144.0
G01 X7.9404 Y0.1500 Z0.0000 F144.0
G01 X7.9247 Y0.1500 Z0.0000 F144.0
G01 X7.9091 Y0.1500 Z0.0000 F144.0
G01 X7.8935 Y0.1500 Z0.0000 F144.0
G01 X7.8778 Y0.1500 Z0.0000 F144.0
G01 X7.8622 Y0.1500 Z0.0000 F144.0
G01 X7.8465 Y0.1500 Z0.0000 F144.0
G01 X7.8309 Y0.1500 Z0.0000 F144.0
G01 X7.8153 Y0.1500 Z0.0000 F144.0
G01 X7.7996 Y0.1500 Z0.0000 F144.0
G01 X7.7840 Y0.1500 Z0.0000 F144.0
G01 X7.7684 Y0.1500 Z0.0000 F144.0
G01 X7.7527 Y0.1500 Z0.0000 F144.0
G01 X7.7371 Y0.1500 Z0.0000 F144.0
G01 X7.7215 Y0.1500 Z0.0000 F144.0
G01 X7.7058 Y0.1500 Z0.0000 F144.0
G01 X7.6902 Y0.1500 Z0.0000 F144.0
G01 X7.6745 Y0.1500 Z0.0000 F144.0
G01 X7.6589 Y0.1500 Z0.0000 F144.0
G01 X7.6433 Y0.1500 Z0.0000 F144.0
G01 X7.6276 Y0.1500 Z0.0000 F144.0
G01 X7.6120 Y0.1500 Z0.0000 F144.0
G01 X7.5964 Y0.1500 Z0.0000 F144.0
G01 X7.5807 Y0.1500 Z0.0000 F144.0
G01 X7.5651 Y0.1500 Z0.0000 F144.0
G01 X7.5495 Y0.1500 Z0.0000 F144.0
G01 X7.5338 Y0.1500 Z0.0000 F144.0
G01 X7.5182 Y0.1500 Z0.0000 F144.0
G01 X7.5025 Y0.1500 Z0.0000 F144.0
G01 X7.4869 Y0.1500 Z0.0000 F144.0
G01 X7.4713 Y0.1500 Z0.0000 F144.0
G01 X7.4556 Y0.1500 Z0.0000 F144.0
G01 X7.4400 Y0.1500 Z0.0000 F144.0
G01 X7.4244 Y0.1500 Z0.0000 F144.0
G01 X7.4087 Y0.1500 Z0.0000 F144.0
G01 X7.3931 Y0.1500 Z0.0000 F144.0
G01 X7.3775 Y0.1500 Z0.0000 F144.0
G01 X7.3618 Y0.1500 Z0.0000 F144.0
G01 X7.3462 Y0.1500 Z0.0000 F144.0
G01 X7.3305 Y0.1500 Z0.0000 F144.0
G01 X7.3149 Y0.1500 Z0.0000 F144.0
G01 X7.2993 Y0.1500 Z0.0000 F144.0
G01 X7.2836 Y0.1500 Z0.0000 F144.0
G01 X7.2680 Y0.1500 Z0.0000 F144.0
G01 X7.2524 Y0.1500 Z0.0000 F144.0
G01 X7.2367 Y0.1500 Z0.0000 F144.0
G01 X7.2211 Y0.1500 Z0.0000 F144.0
G01 X7.2055 Y0.1500 Z0.0000 F144.0
G01 X7.1898 Y0.1500 Z0.0000 F144.0
G01 X7.1742 Y0.1500 Z0.0000 F144.0
G01 X7.1585 Y0.1500 Z0.0000 F144.0
G01 X7.1429 Y0.1500 Z0.0000 F144.0
G01 X7.1273 Y0.1500 Z0.0000 F144.0
G01 X7.1116 Y0.1500 Z0.0000 F144.0
G01 X7.0960 Y0.1500 Z0.0000 F144.0
G01 X7.0804 Y0.1500 Z0.0000 F144.0
G01 X7.0647 Y0.1500 Z0.0000 F144.0
G01 X7.0491 Y0.1500 Z0.0000 F144.0
G01 X7.0335 Y0.1500 Z0.0000 F144.0
G01 X7.0178 Y0.1500 Z0.0000 F144.0
G01 X7.0022 Y0.1500 Z0.0000 F144.0
G01 X6.9865 Y0.1500 Z0.0000 F144.0
G01 X6.9709 Y0.1500 Z0.0000 F144.0
G01 X6.9553 Y0.1500 Z0.0000 F144.0
G01 X6.9396 Y0.1500 Z0.0000 F144.0
G01 X6.9240 Y0.1500 Z0.0000 F144.0
G01 X6.9084 Y0.1500 Z0.0000 F144.0
G01 X6.8927 Y0.1500 Z0.0000 F144.0
G01 X6.8771 Y0.1500 Z0.0000 F144.0
G01 X6.8615 Y0.1500 Z0.0000 F144.0
G01 X6.8458 Y0.1500 Z0.0000 F144.0
G01 X6.8302 Y0.1500 Z0.0000 F144.0
G01 X6.8145 Y0.1500 Z0.0000 F144.0
G01 X6.7989 Y0.1500 Z0.0000 F144.0
G01 X6.7833 Y0.1500 Z0.0000 F144.0
G01 X6.7676 Y0.1500 Z0.0000 F144.0
G01 X6.7520 Y0.1500 Z0.0000 F144.0
G01 X6.7364 Y0.1500 Z0.0000 F144.0
G01 X6.7207 Y0.1500 Z0.0000 F144.0
G01 X6.7051 Y0.1500 Z0.0000 F144.0
G01 X6.6895 Y0.1500 Z0.0000 F144.0
G01 X6.6738 Y0.1500 Z0.0000 F144.0
G01 X6.6582 Y0.1500 Z0.0000 F144.0
G01 X6.6425 Y0.1500 Z0.0000 F144.0
G01 X6.6269 Y0.1500 Z0.0000 F144.0
G01 X6.6113 Y0.1500 Z0.0000 F144.0
G01 X6.5956 Y0.1500 Z0.0000 F144.0
G01 X6.5800 Y0.1500 Z0.0000 F144.0
G01 X6.5644 Y0.1500 Z0.0000 F144.0
G01 X6.5487 Y0.1500 Z0.0000 F144.0
G01 X6.5331 Y0.1500 Z0.0000 F144.0
G01 X6.5175 Y0.1500 Z0.0000 F144.0
G01 X6.5018 Y0.1500 Z0.0000 F144.0
G01 X6.4862 Y0.1500 Z0.0000 F144.0
G01 X6.4705 Y0.1500 Z0.0000 F144.0
G01 X6.4549 Y0.1500 Z0.0000 F144.0
G01 X6.4393 Y0.1500 Z0.0000 F144.0
G01 X6.4236 Y0.1500 Z0.0000 F144.0
G01 X6.4080 Y0.1500 Z0.0000 F144.0
G01 X6.3924 Y0.1500 Z0.0000 F144.0
G01 X6.3767 Y0.1500 Z0.0000 F144.0
G01 X6.3611 Y0.1500 Z0.0000 F144.0
G01 X6.3455 Y0.1500 Z0.0000 F144.0
G01 X6.3298 Y0.1500 Z0.0000 F144.0
G01 X6.3142 Y0.1500 Z0.0000 F144.0
G01 X6.2985 Y0.1500 Z0.0000 F144.0
G01 X6.2829 Y0.1500 Z0.0000 F144.0
G01 X6.2673 Y0.1500 Z0.0000 F144.0
G01 X6.2516 Y0.1500 Z0.0000 F144.0
G01 X6.2360 Y0.1500 Z0.0000 F144.0
G01 X6.2204 Y0.1500 Z0.0000 F144.0
G01 X6.2047 Y0.1500 Z0.0000 F144.0
G01 X6.1891 Y0.1500 Z0.0000 F144.0
G01 X6.1735 Y0.1500 Z0.0000 F144.0
G01 X6.1578 Y0.1500 Z0.0000 F144.0
G01 X6.1422 Y0.1500 Z0.0000 F144.0
G01 X6.1265 Y0.1500 Z0.0000 F144.0
G01 X6.1109 Y0.1500 Z0.0000 F144.0
G01 X6.0953 Y0.1500 Z0.0000 F144.0
G01 X6.0796 Y0.1500 Z0.0000 F144.0
G01 X6.0640 Y0.1500 Z0.0000 F144.0
G01 X6.0484 Y0.1500 Z0.0000 F144.0
G01 X6.0327 Y0.1500 Z0.0000 F144.0
G01 X6.0171 Y0.1500 Z0.0000 F144.0
G01 X6.0015 Y0.1500 Z0.0000 F144.0
G01 X5.9858 Y0.1500 Z0.0000 F144.0
G01 X5.9702 Y0.1500 Z0.0000 F144.0
G01 X5.9545 Y0.1500 Z0.0000 F144.0
G01 X5.9389 Y0.1500 Z0.0000 F144.0
G01 X5.9233 Y0.1500 Z0.0000 F144.0
G01 X5.9076 Y0.1500 Z0.0000 F144.0
G01 X5.8920 Y0.1500 Z0.0000 F144.0
G01 X5.8764 Y0.1500 Z0.0000 F144.0
G01 X5.8607 Y0.1500 Z0.0000 F144.0
G01 X5.8451 Y0.1500 Z0.0000 F144.0
G01 X5.8295 Y0.1500 Z0.0000 F144.0
G01 X5.8138 Y0.1500 Z0.0000 F144.0
G01 X5.7982 Y0.1500 Z0.0000 F144.0
G01 X5.7825 Y0.1500 Z0.0000 F144.0
G01 X5.7669 Y0.1500 Z0.0000 F144.0
G01 X5.7513 Y0.1500 Z0.0000 F144.0
G01 X5.7356 Y0.1500 Z0.0000 F144.0
G01 X5.7200 Y0.1500 Z0.0000 F144.0
G01 X5.7044 Y0.1500 Z0.0000 F144.0
G01 X5.6887 Y0.1500 Z0.0000 F144.0
G01 X5.6731 Y0.1500 Z0.0000 F144.0
G01 X5.6575 Y0.1500 Z0.0000 F144.0
G01 X5.6418 Y0.1500 Z0.0000 F144.0
G01 X5.6262 Y0.1500 Z0.0000 F144.0
G01 X5.6105 Y0.1500 Z0.0000 F144.0
G01 X5.5949 Y0.1500 Z0.0000 F144.0
G01 X5.5793 Y0.1500 Z0.0000 F144.0
G01 X5.5636 Y0.1500 Z0.0000 F144.0
G01 X5.5480 Y0.1500 Z0.0000 F144.0
G01 X5.5324 Y0.1500 Z0.0000 F144.0
G01 X5.5167 Y0.1500 Z0.0000 F144.0
G01 X5.5011 Y0.1500 Z0.0000 F144.0
G01 X5.4855 Y0.1500 Z0.0000 F144.0
G01 X5.4698 Y0.1500 Z0.0000 F144.0
G01 X5.4542 Y0.1500 Z0.0000 F144.0
G01 X5.4385 Y0.1500 Z0.0000 F144.0
G01 X5.4229 Y0.1500 Z0.0000 F144.0
G01 X5.4073 Y0.1500 Z0.0000 F144.0
G01 X5.3916 Y0.1500 Z0.0000 F144.0
G01 X5.3760 Y0.1500 Z0.0000 F144.0
G01 X5.3604 Y0.1500 Z0.0000 F144.0
G01 X5.3447 Y0.1500 Z0.0000 F144.0
G01 X5.3291 Y0.1500 Z0.0000 F144.0
G01 X5.3135 Y0.1500 Z0.0000 F144.0
G01 X5.2978 Y0.1500 Z0.0000 F144.0
G01 X5.2822 Y0.1500 Z0.0000 F144.0
G01 X5.2665 Y0.1500 Z0.0000 F144.0
G01 X5.2509 Y0.1500 Z0.0000 F144.0
G01 X5.2353 Y0.1500 Z0.0000 F144.0
G01 X5.2196 Y0.1500 Z0.0000 F144.0
G01 X5.2040 Y0.1500 Z0.0000 F144.0
G01 X5.1884 Y0.1500 Z0.0000 F144.0
G01 X5.1727 Y0.1500 Z0.0000 F144.0
G01 X5.1571 Y0.1500 Z0.0000 F144.0
G01 X5.1415 Y0.1500 Z0.0000 F144.0
G01 X5.1258 Y0.1500 Z0.0000 F144.0
G01 X5.1102 Y0.1500 Z0.0000 F144.0
G01 X5.0945 Y0.1500 Z0.0000 F144.0
G01 X5.0789 Y0.1500 Z0.0000 F144.0
G01 X5.0633 Y0.1500 Z0.0000 F144.0
G01 X5.0476 Y0.1500 Z0.0000 F144.0
G01 X5.0320 Y0.1500 Z0.0000 F144.0
G01 X5.0164 Y0.1500 Z0.0000 F144.0
G01 X5.0007 Y0.1500 Z0.0000 F144.0
G01 X4.9851 Y0.1500 Z0.0000 F144.0
G01 X4.9695 Y0.1500 Z0.0000 F144.0
G01 X4.9538 Y0.1500 Z0.0000 F144.0
G01 X4.9382 Y0.1500 Z0.0000 F144.0
G01 X4.9225 Y0.1500 Z0.0000 F144.0
G01 X4.9069 Y0.1500 Z0.0000 F144.0
G01 X4.8913 Y0.1500 Z0.0000 F144.0
G01 X4.8756 Y0.1500 Z0.0000 F144.0
G01 X4.8600 Y0.1500 Z0.0000 F144.0
G01 X4.8444 Y0.1500 Z0.0000 F144.0
G01 X4.8287 Y0.1500 Z0.0000 F144.0
G01 X4.8131 Y0.1500 Z0.0000 F144.0
G01 X4.7975 Y0.1500 Z0.0000 F144.0
G01 X4.7818 Y0.1500 Z0.0000 F144.0
G01 X4.7662 Y0.1500 Z0.0000 F144.0
G01 X4.7505 Y0.1500 Z0.0000 F144.0
G01 X4.7349 Y0.1500 Z0.0000 F144.0
G01 X4.7193 Y0.1500 Z0.0000 F144.0
G01 X4.7036 Y0.1500 Z0.0000 F144.0
G01 X4.6880 Y0.1500 Z0.0000 F144.0
G01 X4.6724 Y0.1500 Z0.0000 F144.0
G01 X4.6567 Y0.1500 Z0.0000 F144.0
G01 X4.6411 Y0.1500 Z0.0000 F144.0
G01 X4.6255 Y0.1500 Z0.0000 F144.0
G01 X4.6098 Y0.1500 Z0.0000 F144.0
G01 X4.5942 Y0.1500 Z0.0000 F144.0
G01 X4.5785 Y0.1500 Z0.0000 F144.0
G01 X4.5629 Y0.1500 Z0.0000 F144.0
G01 X4.5473 Y0.1500 Z0.0000 F144.0
G01 X4.5316 Y0.1500 Z0.0000 F144.0
G01 X4.5160 Y0.1500 Z0.0000 F144.0
G01 X4.5004 Y0.1500 Z0.0000 F144.0
G01 X4.4847 Y0.1500 Z0.0000 F144.0
G01 X4.4691 Y0.1500 Z0.0000 F144.0
G01 X4.4535 Y0.1500 Z0.0000 F144.0
G01 X4.4378 Y0.1500 Z0.0000 F144.0
G01 X4.4222 Y0.1500 Z0.0000 F144.0
G01 X4.4065 Y0.1500 Z0.0000 F144.0
G01 X4.3909 Y0.1500 Z0.0000 F144.0
G01 X4.3753 Y0.1500 Z0.0000 F144.0
G01 X4.3596 Y0.1500 Z0.0000 F144.0
G01 X4.3440 Y0.1500 Z0.0000 F144.0
G01 X4.3284 Y0.1500 Z0.0000 F144.0
G01 X4.3127 Y0.1500 Z0.0000 F144.0
G01 X4.2971 Y0.1500 Z0.0000 F144.0
G01 X4.2815 Y0.1500 Z0.0000 F144.0
G01 X4.2658 Y0.1500 Z0.0000 F144.0
G01 X4.2502 Y0.1500 Z0.0000 F144.0
G01 X4.2345 Y0.1500 Z0.0000 F144.0
G01 X4.2189 Y0.1500 Z0.0000 F144.0
G01 X4.2033 Y0.1500 Z0.0000 F144.0
G01 X4.1876 Y0.1500 Z0.0000 F144.0
G01 X4.1720 Y0.1500 Z0.0000 F144.0
G01 X4.1564 Y0.1500 Z0.0000 F144.0
G01 X4.1407 Y0.1500 Z0.0000 F144.0
G01 X4.1251 Y0.1500 Z0.0000 F144.0
G01 X4.1095 Y0.1500 Z0.0000 F144.0
G01 X4.0938 Y0.1500 Z0.0000 F144.0
G01 X4.0782 Y0.1500 Z0.0000 F144.0
G01 X4.0625 Y0.1500 Z0.0000 F144.0
G01 X4.0469 Y0.1500 Z0.0000 F144.0
G01 X4.0313 Y0.1500 Z0.0000 F144.0
G01 X4.0156 Y0.1500 Z0.0000 F144.0
G01 X4.0000 Y0.1500 Z0.0000 F144.0
G01 X3.9844 Y0.1500 Z0.0000 F144.0
G01 X3.9687 Y0.1500 Z0.0000 F144.0
G01 X3.9531 Y0.1500 Z0.0000 F144.0
G01 X3.9375 Y0.1500 Z0.0000 F144.0
G01 X3.9218 Y0.1500 Z0.0000 F144.0
G01 X3.9062 Y0.1500 Z0.0000 F144.0
G01 X3.8905 Y0.1500 Z0.0000 F144.0
G01 X3.8749 Y0.1500 Z0.0000 F144.0
G01 X3.8593 Y0.1500 Z0.0000 F144.0
G01 X3.8436 Y0.1500 Z0.0000 F144.0
G01 X3.8280 Y0.1500 Z0.0000 F144.0
G01 X3.8124 Y0.1500 Z0.0000 F144.0
G01 X3.7967 Y0.1500 Z0.0000 F144.0
G01 X3.7811 Y0.1500 Z0.0000 F144.0
G01 X3.7655 Y0.1500 Z0.0000 F144.0
G01 X3.7498 Y0.1500 Z0.0000 F144.0
G01 X3.7342 Y0.1500 Z0.0000 F144.0
G01 X3.7185 Y0.1500 Z0.0000 F144.0
G01 X3.7029 Y0.1500 Z0.0000 F144.0
G01 X3.6873 Y0.1500 Z0.0000 F144.0
G01 X3.6716 Y0.1500 Z0.0000 F144.0
G01 X3.6560 Y0.1500 Z0.0000 F144.0
G01 X3.6404 Y0.1500 Z0.0000 F144.0
G01 X3.6247 Y0.1500 Z0.0000 F144.0
G01 X3.6091 Y0.1500 Z0.0000 F144.0
G01 X3.5935 Y0.1500 Z0.0000 F144.0
G01 X3.5778 Y0.1500 Z0.0000 F144.0
G01 X3.5622 Y0.1500 Z0.0000 F144.0
G01 X3.5465 Y0.1500 Z0.0000 F144.0
G01 X3.5309 Y0.1500 Z0.0000 F144.0
G01 X3.5153 Y0.1500 Z0.0000 F144.0
G01 X3.4996 Y0.1500 Z0.0000 F144.0
G01 X3.4840 Y0.1500 Z0.0000 F144.0
G01 X3.4684 Y0.1500 Z0.0000 F144.0
G01 X3.4527 Y0.1500 Z0.0000 F144.0
G01 X3.4371 Y0.1500 Z0.0000 F144.0
G01 X3.4215 Y0.1500 Z0.0000 F144.0
G01 X3.4058 Y0.1500 Z0.0000 F144.0
G01 X3.3902 Y0.1500 Z0.0000 F144.0
G01 X3.3745 Y0.1500 Z0.0000 F144.0
G01 X3.3589 Y0.1500 Z0.0000 F144.0
G01 X3.3433 Y0.1500 Z0.0000 F144.0
G01 X3.3276 Y0.1500 Z0.0000 F144.0
G01 X3.3120 Y0.1500 Z0.0000 F144.0
G01 X3.2964 Y0.1500 Z0.0000 F144.0
G01 X3.2807 Y0.1500 Z0.0000 F144.0
G01 X3.2651 Y0.1500 Z0.0000 F144.0
G01 X3.2495 Y0.1500 Z0.0000 F144.0
G01 X3.2338 Y0.1500 Z0.0000 F144.0
G01 X3.2182 Y0.1500 Z0.0000 F144.0
G01 X3.2025 Y0.1500 Z0.0000 F144.0
G01 X3.1869 Y0.1500 Z0.0000 F144.0
G01 X3.1713 Y0.1500 Z0.0000 F144.0
G01 X3.1556 Y0.1500 Z0.0000 F144.0
G01 X3.1400 Y0.1500 Z0.0000 F144.0
G01 X3.1244 Y0.1500 Z0.0000 F144.0
G01 X3.1087 Y0.1500 Z0.0000 F144.0
G01 X3.0931 Y0.1500 Z0.0000 F144.0
G01 X3.0775 Y0.1500 Z0.0000 F144.0
G01 X3.0618 Y0.1500 Z0.0000 F144.0
G01 X3.0462 Y0.1500 Z0.0000 F144.0
G01 X3.0305 Y0.1500 Z0.0000 F144.0
G01 X3.0149 Y0.1500 Z0.0000 F144.0
G01 X2.9993 Y0.1500 Z0.0000 F144.0
G01 X2.9836 Y0.1500 Z0.0000 F144.0
G01 X2.9680 Y0.1500 Z0.0000 F144.0
G01 X2.9524 Y0.1500 Z0.0000 F144.0
G01 X2.9367 Y0.1500 Z0.0000 F144.0
G01 X2.9211 Y0.1500 Z0.0000 F144.0
G01 X2.9055 Y0.1500 Z0.0000 F144.0
G01 X2.8898 Y0.1500 Z0.0000 F144.0
G01 X2.8742 Y0.1500 Z0.0000 F144.0
G01 X2.8585 Y0.1500 Z0.0000 F144.0
G01 X2.8429 Y0.1500 Z0.0000 F144.0
G01 X2.8273 Y0.1500 Z0.0000 F144.0
G01 X2.8116 Y0.1500 Z0.0000 F144.0
G01 X2.7960 Y0.1500 Z0.0000 F144.0
G01 X2.7804 Y0.1500 Z0.0000 F144.0
G01 X2.7647 Y0.1500 Z0.0000 F144.0
G01 X2.7491 Y0.1500 Z0.0000 F144.0
G01 X2.7335 Y0.1500 Z0.0000 F144.0
G01 X2.7178 Y0.1500 Z0.0000 F144.0
G01 X2.7022 Y0.1500 Z0.0000 F144.0
G01 X2.6865 Y0.1500 Z0.0000 F144.0
G01 X2.6709 Y0.1500 Z0.0000 F144.0
G01 X2.6553 Y0.1500 Z0.0000 F144.0
G01 X2.6396 Y0.1500 Z0.0000 F144.0
G01 X2.6240 Y0.1500 Z0.0000 F144.0
G01 X2.6084 Y0.1500 Z0.0000 F144.0
G01 X2.5927 Y0.1500 Z0.0000 F144.0
G01 X2.5771 Y0.1500 Z0.0000 F144.0
G01 X2.5615 Y0.1500 Z0.0000 F144.0
G01 X2.5458 Y0.1500 Z0.0000 F144.0
G01 X2.5302 Y0.1500 Z0.0000 F144.0
G01 X2.5145 Y0.1500 Z0.0000 F144.0
G01 X2.4989 Y0.1500 Z0.0000 F144.0
G01 X2.4833 Y0.1500 Z0.0000 F144.0
G01 X2.4676 Y0.1500 Z0.0000 F144.0
G01 X2.4520 Y0.1500 Z0.0000 F144.0
G01 X2.4364 Y0.1500 Z0.0000 F144.0
G01 X2.4207 Y0.1500 Z0.0000 F144.0
G01 X2.4051 Y0.1500 Z0.0000 F144.0
G01 X2.3895 Y0.1500 Z0.0000 F144.0
G01 X2.3738 Y0.1500 Z0.0000 F144.0
G01 X2.3582 Y0.1500 Z0.0000 F144.0
G01 X2.3425 Y0.1500 Z0.0000 F144.0
G01 X2.3269 Y0.1500 Z0.0000 F144.0
G01 X2.3113 Y0.1500 Z0.0000 F144.0
G01 X2.2956 Y0.1500 Z0.0000 F144.0
G01 X2.2800 Y0.1500 Z-0.0001 F144.0
G01 X2.2644 Y0.1500 Z-0.0002 F144.0
G01 X2.2487 Y0.1500 Z-0.0003 F144.0
G01 X2.2331 Y0.1500 Z-0.0004 F144.0
G01 X2.2175 Y0.1500 Z-0.0006 F144.0
G01 X2.2018 Y0.1500 Z-0.0007 F144.0
G01 X2.1862 Y0.1500 Z-0.0008 F144.0
G01 X2.1705 Y0.1500 Z-0.0009 F144.0
G01 X2.1549 Y0.1500 Z-0.0010 F144.0
G01 X2.1393 Y0.1500 Z-0.0012 F144.0
G01 X2.1236 Y0.1500 Z-0.0013 F144.0
G01 X2.1080 Y0.1500 Z-0.0014 F144.0
G01 X2.0924 Y0.1500 Z-0.0015 F144.0
G01 X2.0767 Y0.1500 Z-0.0016 F144.0
G01 X2.0611 Y0.1500 Z-0.0018 F144.0
G01 X2.0455 Y0.1500 Z-0.0019 F144.0
G01 X2.0298 Y0.1500 Z-0.0020 F144.0
G01 X2.0142 Y0.1500 Z-0.0021 F144.0
G01 X1.9985 Y0.1500 Z-0.0022 F144.0
G01 X1.9829 Y0.1500 Z-0.0023 F144.0
G01 X1.9673 Y0.1500 Z-0.0024 F144.0
G01 X1.9516 Y0.1500 Z-0.0025 F144.0
G01 X1.9360 Y0.1500 Z-0.0027 F144.0
G01 X1.9204 Y0.1500 Z-0.0028 F144.0
G01 X1.9047 Y0.1500 Z-0.0029 F144.0
G01 X1.8891 Y0.1500 Z-0.0030 F144.0
G01 X1.8735 Y0.1500 Z-0.0031 F144.0
G01 X1.8578 Y0.1500 Z-0.0032 F144.0
G01 X1.8422 Y0.1500 Z-0.0033 F144.0
G01 X1.8265 Y0.1500 Z-0.0034 F144.0
G01 X1.8109 Y0.1500 Z-0.0035 F144.0
G01 X1.7953 Y0.1500 Z-0.0036 F144.0
G01 X1.7796 Y0.1500 Z-0.0037 F144.0
G01 X1.7640 Y0.1500 Z-0.0038 F144.0
G01 X1.7484 Y0.1500 Z-0.0039 F144.0
G01 X1.7327 Y0.1500 Z-0.0040 F144.0
G01 X1.7171 Y0.1500 Z-0.0041 F144.0
G01 X1.7015 Y0.1500 Z-0.0042 F144.0
G01 X1.6858 Y0.1500 Z-0.0043 F144.0
G01 X1.6702 Y0.1500 Z-0.0044 F144.0
G01 X1.6545 Y0.1500 Z-0.0045 F144.0
G01 X1.6389 Y0.1500 Z-0.0046 F144.0
G01 X1.6233 Y0.1500 Z-0.0047 F144.0
G01 X1.6076 Y0.1500 Z-0.0047 F144.0
G01 X1.5920 Y0.1500 Z-0.0048 F144.0
G01 X1.5764 Y0.1500 Z-0.0049 F144.0
G01 X1.5607 Y0.1500 Z-0.0050 F144.0
G01 X1.5451 Y0.1500 Z-0.0051 F144.0
G01 X1.5295 Y0.1500 Z-0.0052 F144.0
G01 X1.5138 Y0.1500 Z-0.0052 F144.0
G01 X1.4982 Y0.1500 Z-0.0053 F144.0
G01 X1.4825 Y0.1500 Z-0.0054 F144.0
G01 X1.4669 Y0.1500 Z-0.0055 F144.0
G01 X1.4513 Y0.1500 Z-0.0056 F144.0
G01 X1.4356 Y0.1500 Z-0.0056 F144.0
G01 X1.4200 Y0.1500 Z-0.0057 F144.0
G01 X1.4044 Y0.1500 Z-0.0058 F144.0
G01 X1.3887 Y0.1500 Z-0.0059 F144.0
G01 X1.3731 Y0.1500 Z-0.0059 F144.0
G01 X1.3575 Y0.1500 Z-0.0060 F144.0
G01 X1.3418 Y0.1500 Z-0.0061 F144.0
G01 X1.3262 Y0.1500 Z-0.0061 F144.0
G01 X1.3105 Y0.1500 Z-0.0062 F144.0
G01 X1.2949 Y0.1500 Z-0.0063 F144.0
G01 X1.2793 Y0.1500 Z-0.0063 F144.0
G01 X1.2636 Y0.1500 Z-0.0064 F144.0
G01 X1.2480 Y0.1500 Z-0.0064 F144.0
G01 X1.2324 Y0.1500 Z-0.0065 F144.0
G01 X1.2167 Y0.1500 Z-0.0065 F144.0
G01 X1.2011 Y0.1500 Z-0.0066 F144.0
G01 X1.1855 Y0.1500 Z-0.0067 F144.0
G01 X1.1698 Y0.1500 Z-0.0067 F144.0
G01 X1.1542 Y0.1500 Z-0.0068 F144.0
G01 X1.1385 Y0.1500 Z-0.0068 F144.0
G01 X1.1229 Y0.1500 Z-0.0069 F144.0
G01 X1.1073 Y0.1500 Z-0.0069 F144.0
G01 X1.0916 Y0.1500 Z-0.0070 F144.0
G01 X1.0760 Y0.1500 Z-0.0070 F144.0
G01 X1.0604 Y0.1500 Z-0.0070 F144.0
G01 X1.0447 Y0.1500 Z-0.0071 F144.0
G01 X1.0291 Y0.1500 Z-0.0071 F144.0
G01 X1.0135 Y0.1500 Z-0.0072 F144.0
G01 X0.9978 Y0.1500 Z-0.0072 F144.0
G01 X0.9822 Y0.1500 Z-0.0072 F144.0
G01 X0.9665 Y0.1500 Z-0.0073 F144.0
G01 X0.9509 Y0.1500 Z-0.0073 F144.0
G01 X0.9353 Y0.1500 Z-0.0073 F144.0
G01 X0.9196 Y0.1500 Z-0.0074 F144.0
G01 X0.9040 Y0.1500 Z-0.0074 F144.0
G01 X0.8884 Y0.1500 Z-0.0074 F144.0
G01 X0.8727 Y0.1500 Z-0.0075 F144.0
G01 X0.8571 Y0.1500 Z-0.0075 F144.0
G01 X0.8415 Y0.1500 Z-0.0075 F144.0
G01 X0.8258 Y0.1500 Z-0.0076 F144.0
G01 X0.8102 Y0.1500 Z-0.0076 F144.0
G01 X0.7945 Y0.1500 Z-0.0076 F144.0
G01 X0.7789 Y0.1500 Z-0.0076 F144.0
G01 X0.7633 Y0.1500 Z-0.0077 F144.0
G01 X0.7476 Y0.1500 Z-0.0077 F144.0
G01 X0.7320 Y0.1500 Z-0.0077 F144.0
G01 X0.7164 Y0.1500 Z-0.0077 F144.0
G01 X0.7007 Y0.1500 Z-0.0077 F144.0
G01 X0.6851 Y0.1500 Z-0.0078 F144.0
G01 X0.6695 Y0.1500 Z-0.0078 F144.0
G01 X0.6538 Y0.1500 Z-0.0078 F144.0
G01 X0.6382 Y0.1500 Z-0.0078 F144.0
G01 X0.6225 Y0.1500 Z-0.0078 F144.0
G01 X0.6069 Y0.1500 Z-0.0078 F144.0
G01 X0.5913 Y0.1500 Z-0.0078 F144.0
G01 X0.5756 Y0.1500 Z-0.0079 F144.0
G01 X0.5600 Y0.1500 Z-0.0079 F144.0
G01 X0.5444 Y0.1500 Z-0.0079 F144.0
G01 X0.5287 Y0.1500 Z-0.0079 F144.0
G01 X0.5131 Y0.1500 Z-0.0079 F144.0
G01 X0.4975 Y0.1500 Z-0.0079 F144.0
G01 X0.4818 Y0.1500 Z-0.0079 F144.0
G01 X0.4662 Y0.1500 Z-0.0079 F144.0
G01 X0.4505 Y0.1500 Z-0.0079 F144.0
G01 X0.4349 Y0.1500 Z-0.0079 F144.0
G01 X0.4193 Y0.1500 Z-0.0079 F144.0
G01 X0.4036 Y0.1500 Z-0.0080 F144.0
G01 X0.3880 Y0.1500 Z-0.0080 F144.0
G01 X0.3724 Y0.1500 Z-0.0080 F144.0
G01 X0.3567 Y0.1500 Z-0.0080 F144.0
G01 X0.3411 Y0.1500 Z-0.0080 F144.0
G01 X0.3255 Y0.1500 Z-0.0080 F144.0
G01 X0.3098 Y0.1500 Z-0.0080 F144.0
G01 X0.2942 Y0.1500 Z-0.0080 F144.0
G01 X0.2785 Y0.1500 Z-0.0080 F144.0
G01 X0.2629 Y0.1500 Z-0.0080 F144.0
G01 X0.2473 Y0.1500 Z-0.0080 F144.0
G01 X0.2316 Y0.1500 Z-0.0080 F144.0
G01 X0.2160 Y0.1500 Z-0.0080 F144.0
G01 X0.2004 Y0.1500 Z-0.0080 F144.0
G01 X0.1847 Y0.1500 Z-0.0080 F144.0
G01 X0.1691 Y0.1500 Z-0.0080 F144.0
G01 X0.1535 Y0.1500 Z-0.0080 F144.0
G01 X0.1378 Y0.1500 Z-0.0080 F144.0
G01 X0.1222 Y0.1500 Z-0.0080 F144.0
G01 X0.1065 Y0.1500 Z-0.0080 F144.0
G01 X0.0909 Y0.1500 Z-0.0080 F144.0
G01 X0.0753 Y0.1500 Z-0.0080 F144.0
G01 X0.0596 Y0.1500 Z-0.0080 F144.0
G01 X0.0440 Y0.1500 Z-0.0080 F144.0
G01 X0.0284 Y0.1500 Z-0.0080 F144.0
G01 X0.0127 Y0.1500 Z-0.0080 F144.0
G01 X-0.0029 Y0.1500 Z-0.0660 F144.0
G01 X-0.0185 Y0.1500 Z-0.0660 F144.0
G01 X-0.0342 Y0.1500 Z-0.0660 F144.0
G01 X-0.0498 Y0.1500 Z-0.0660 F144.0
G01 X-0.0655 Y0.1500 Z-0.0660 F144.0
G01 X-0.0811 Y0.1500 Z-0.0660 F144.0
G01 X-0.0967 Y0.1500 Z-0.0660 F144.0
G01 X-0.1124 Y0.1500 Z-0.0660 F144.0
G01 X-0.1280 Y0.1500 Z-0.0660 F144.0
G01 X-0.1436 Y0.1500 Z-0.0660 F144.0
G01 X-0.1593 Y0.1500 Z-0.0660 F144.0
G01 X-0.1749 Y0.1500 Z-0.0660 F144.0
G01 X-0.1905 Y0.1500 Z-0.0660 F144.0
G01 X-0.2062 Y0.1500 Z-0.0660 F144.0
G01 X-0.2218 Y0.1500 Z-0.0660 F144.0
G01 X-0.2375 Y0.1500 Z-0.0660 F144.0
G01 X-0.2531 Y0.1500 Z-0.0660 F144.0
G01 X-0.2687 Y0.1500 Z-0.0660 F144.0
G01 X-0.2844 Y0.1500 Z-0.0660 F144.0
G01 X-0.3000 Y0.1500 Z-0.0660 F144.0
G01 Z0.2000 F180.0  (lift)
G01 X-0.3000 Y0.3000 F180.0  (row Y=0.300)
G01 Z-0.0660 F20.0  (entry plunge (outside stock))
G01 X-0.3000 Y0.3000 Z-0.0660 F144.0
G01 X-0.2844 Y0.3000 Z-0.0660 F144.0
G01 X-0.2687 Y0.3000 Z-0.0660 F144.0
G01 X-0.2531 Y0.3000 Z-0.0660 F144.0
G01 X-0.2375 Y0.3000 Z-0.0660 F144.0
G01 X-0.2218 Y0.3000 Z-0.0660 F144.0
G01 X-0.2062 Y0.3000 Z-0.0660 F144.0
G01 X-0.1905 Y0.3000 Z-0.0660 F144.0
G01 X-0.1749 Y0.3000 Z-0.0660 F144.0
G01 X-0.1593 Y0.3000 Z-0.0660 F144.0
G01 X-0.1436 Y0.3000 Z-0.0660 F144.0
G01 X-0.1280 Y0.3000 Z-0.0660 F144.0
G01 X-0.1124 Y0.3000 Z-0.0660 F144.0
G01 X-0.0967 Y0.3000 Z-0.0660 F144.0
G01 X-0.0811 Y0.3000 Z-0.0660 F144.0
G01 X-0.0655 Y0.3000 Z-0.0660 F144.0
G01 X-0.0498 Y0.3000 Z-0.0660 F144.0
G01 X-0.0342 Y0.3000 Z-0.0660 F144.0
G01 X-0.0185 Y0.3000 Z-0.0660 F144.0
G01 X-0.0029 Y0.3000 Z-0.0660 F144.0
G01 X0.0127 Y0.3000 Z-0.0089 F144.0
G01 X0.0284 Y0.3000 Z-0.0089 F144.0
G01 X0.0440 Y0.3000 Z-0.0089 F144.0
G01 X0.0596 Y0.3000 Z-0.0089 F144.0
G01 X0.0753 Y0.3000 Z-0.0089 F144.0
G01 X0.0909 Y0.3000 Z-0.0089 F144.0
G01 X0.1065 Y0.3000 Z-0.0089 F144.0
G01 X0.1222 Y0.3000 Z-0.0089 F144.0
G01 X0.1378 Y0.3000 Z-0.0089 F144.0
G01 X0.1535 Y0.3000 Z-0.0089 F144.0
G01 X0.1691 Y0.3000 Z-0.0089 F144.0
G01 X0.1847 Y0.3000 Z-0.0089 F144.0
G01 X0.2004 Y0.3000 Z-0.0089 F144.0
G01 X0.2160 Y0.3000 Z-0.0089 F144.0
G01 X0.2316 Y0.3000 Z-0.0089 F144.0
G01 X0.2473 Y0.3000 Z-0.0089 F144.0
G01 X0.2629 Y0.3000 Z-0.0089 F144.0
G01 X0.2785 Y0.3000 Z-0.0089 F144.0
G01 X0.2942 Y0.3000 Z-0.0089 F144.0
G01 X0.3098 Y0.3000 Z-0.0089 F144.0
G01 X0.3255 Y0.3000 Z-0.0089 F144.0
G01 X0.3411 Y0.3000 Z-0.0089 F144.0
G01 X0.3567 Y0.3000 Z-0.0089 F144.0
G01 X0.3724 Y0.3000 Z-0.0089 F144.0
G01 X0.3880 Y0.3000 Z-0.0089 F144.0
G01 X0.4036 Y0.3000 Z-0.0089 F144.0
G01 X0.4193 Y0.3000 Z-0.0089 F144.0
G01 X0.4349 Y0.3000 Z-0.0089 F144.0
G01 X0.4505 Y0.3000 Z-0.0089 F144.0
G01 X0.4662 Y0.3000 Z-0.0089 F144.0
G01 X0.4818 Y0.3000 Z-0.0089 F144.0
G01 X0.4975 Y0.3000 Z-0.0089 F144.0
G01 X0.5131 Y0.3000 Z-0.0089 F144.0
G01 X0.5287 Y0.3000 Z-0.0089 F144.0
G01 X0.5444 Y0.3000 Z-0.0089 F144.0
G01 X0.5600 Y0.3000 Z-0.0089 F144.0
G01 X0.5756 Y0.3000 Z-0.0089 F144.0
G01 X0.5913 Y0.3000 Z-0.0088 F144.0
G01 X0.6069 Y0.3000 Z-0.0088 F144.0
G01 X0.6225 Y0.3000 Z-0.0088 F144.0
G01 X0.6382 Y0.3000 Z-0.0088 F144.0
G01 X0.6538 Y0.3000 Z-0.0088 F144.0
G01 X0.6695 Y0.3000 Z-0.0088 F144.0
G01 X0.6851 Y0.3000 Z-0.0088 F144.0
G01 X0.7007 Y0.3000 Z-0.0088 F144.0
G01 X0.7164 Y0.3000 Z-0.0088 F144.0
G01 X0.7320 Y0.3000 Z-0.0087 F144.0
G01 X0.7476 Y0.3000 Z-0.0087 F144.0
G01 X0.7633 Y0.3000 Z-0.0087 F144.0
G01 X0.7789 Y0.3000 Z-0.0087 F144.0
G01 X0.7945 Y0.3000 Z-0.0087 F144.0
G01 X0.8102 Y0.3000 Z-0.0086 F144.0
G01 X0.8258 Y0.3000 Z-0.0086 F144.0
G01 X0.8415 Y0.3000 Z-0.0086 F144.0
G01 X0.8571 Y0.3000 Z-0.0086 F144.0
G01 X0.8727 Y0.3000 Z-0.0086 F144.0
G01 X0.8884 Y0.3000 Z-0.0085 F144.0
G01 X0.9040 Y0.3000 Z-0.0085 F144.0
G01 X0.9196 Y0.3000 Z-0.0085 F144.0
G01 X0.9353 Y0.3000 Z-0.0084 F144.0
G01 X0.9509 Y0.3000 Z-0.0084 F144.0
G01 X0.9665 Y0.3000 Z-0.0084 F144.0
G01 X0.9822 Y0.3000 Z-0.0083 F144.0
G01 X0.9978 Y0.3000 Z-0.0083 F144.0
G01 X1.0135 Y0.3000 Z-0.0083 F144.0
G01 X1.0291 Y0.3000 Z-0.0082 F144.0
G01 X1.0447 Y0.3000 Z-0.0082 F144.0
G01 X1.0604 Y0.3000 Z-0.0082 F144.0
G01 X1.0760 Y0.3000 Z-0.0081 F144.0
G01 X1.0916 Y0.3000 Z-0.0081 F144.0
G01 X1.1073 Y0.3000 Z-0.0080 F144.0
G01 X1.1229 Y0.3000 Z-0.0080 F144.0
G01 X1.1385 Y0.3000 Z-0.0079 F144.0
G01 X1.1542 Y0.3000 Z-0.0079 F144.0
G01 X1.1698 Y0.3000 Z-0.0078 F144.0
G01 X1.1855 Y0.3000 Z-0.0078 F144.0
G01 X1.2011 Y0.3000 Z-0.0077 F144.0
G01 X1.2167 Y0.3000 Z-0.0077 F144.0
G01 X1.2324 Y0.3000 Z-0.0076 F144.0
G01 X1.2480 Y0.3000 Z-0.0076 F144.0
G01 X1.2636 Y0.3000 Z-0.0075 F144.0
G01 X1.2793 Y0.3000 Z-0.0074 F144.0
G01 X1.2949 Y0.3000 Z-0.0074 F144.0
G01 X1.3105 Y0.3000 Z-0.0073 F144.0
G01 X1.3262 Y0.3000 Z-0.0073 F144.0
G01 X1.3418 Y0.3000 Z-0.0072 F144.0
G01 X1.3575 Y0.3000 Z-0.0071 F144.0
G01 X1.3731 Y0.3000 Z-0.0070 F144.0
G01 X1.3887 Y0.3000 Z-0.0070 F144.0
G01 X1.4044 Y0.3000 Z-0.0069 F144.0
G01 X1.4200 Y0.3000 Z-0.0068 F144.0
G01 X1.4356 Y0.3000 Z-0.0068 F144.0
G01 X1.4513 Y0.3000 Z-0.0067 F144.0
G01 X1.4669 Y0.3000 Z-0.0066 F144.0
G01 X1.4825 Y0.3000 Z-0.0065 F144.0
G01 X1.4982 Y0.3000 Z-0.0064 F144.0
G01 X1.5138 Y0.3000 Z-0.0064 F144.0
G01 X1.5295 Y0.3000 Z-0.0063 F144.0
G01 X1.5451 Y0.3000 Z-0.0062 F144.0
G01 X1.5607 Y0.3000 Z-0.0061 F144.0
G01 X1.5764 Y0.3000 Z-0.0060 F144.0
G01 X1.5920 Y0.3000 Z-0.0059 F144.0
G01 X1.6076 Y0.3000 Z-0.0058 F144.0
G01 X1.6233 Y0.3000 Z-0.0058 F144.0
G01 X1.6389 Y0.3000 Z-0.0057 F144.0
G01 X1.6545 Y0.3000 Z-0.0056 F144.0
G01 X1.6702 Y0.3000 Z-0.0055 F144.0
G01 X1.6858 Y0.3000 Z-0.0054 F144.0
G01 X1.7015 Y0.3000 Z-0.0053 F144.0
G01 X1.7171 Y0.3000 Z-0.0052 F144.0
G01 X1.7327 Y0.3000 Z-0.0051 F144.0
G01 X1.7484 Y0.3000 Z-0.0050 F144.0
G01 X1.7640 Y0.3000 Z-0.0049 F144.0
G01 X1.7796 Y0.3000 Z-0.0048 F144.0
G01 X1.7953 Y0.3000 Z-0.0047 F144.0
G01 X1.8109 Y0.3000 Z-0.0046 F144.0
G01 X1.8265 Y0.3000 Z-0.0045 F144.0
G01 X1.8422 Y0.3000 Z-0.0044 F144.0
G01 X1.8578 Y0.3000 Z-0.0043 F144.0
G01 X1.8735 Y0.3000 Z-0.0041 F144.0
G01 X1.8891 Y0.3000 Z-0.0040 F144.0
G01 X1.9047 Y0.3000 Z-0.0039 F144.0
G01 X1.9204 Y0.3000 Z-0.0038 F144.0
G01 X1.9360 Y0.3000 Z-0.0037 F144.0
G01 X1.9516 Y0.3000 Z-0.0036 F144.0
G01 X1.9673 Y0.3000 Z-0.0035 F144.0
G01 X1.9829 Y0.3000 Z-0.0034 F144.0
G01 X1.9985 Y0.3000 Z-0.0032 F144.0
G01 X2.0142 Y0.3000 Z-0.0031 F144.0
G01 X2.0298 Y0.3000 Z-0.0030 F144.0
G01 X2.0455 Y0.3000 Z-0.0029 F144.0
G01 X2.0611 Y0.3000 Z-0.0028 F144.0
G01 X2.0767 Y0.3000 Z-0.0027 F144.0
G01 X2.0924 Y0.3000 Z-0.0025 F144.0
G01 X2.1080 Y0.3000 Z-0.0024 F144.0
G01 X2.1236 Y0.3000 Z-0.0023 F144.0
G01 X2.1393 Y0.3000 Z-0.0022 F144.0
G01 X2.1549 Y0.3000 Z-0.0020 F144.0
G01 X2.1705 Y0.3000 Z-0.0019 F144.0
G01 X2.1862 Y0.3000 Z-0.0018 F144.0
G01 X2.2018 Y0.3000 Z-0.0017 F144.0
G01 X2.2175 Y0.3000 Z-0.0015 F144.0
G01 X2.2331 Y0.3000 Z-0.0014 F144.0
G01 X2.2487 Y0.3000 Z-0.0013 F144.0
G01 X2.2644 Y0.3000 Z-0.0012 F144.0
G01 X2.2800 Y0.3000 Z-0.0010 F144.0
G01 X2.2956 Y0.3000 Z-0.0009 F144.0
G01 X2.3113 Y0.3000 Z-0.0008 F144.0
G01 X2.3269 Y0.3000 Z-0.0006 F144.0
G01 X2.3425 Y0.3000 Z-0.0005 F144.0
G01 X2.3582 Y0.3000 Z-0.0004 F144.0
G01 X2.3738 Y0.3000 Z-0.0003 F144.0
G01 X2.3895 Y0.3000 Z-0.0001 F144.0
G01 X2.4051 Y0.3000 Z0.0000 F144.0
G01 X2.4207 Y0.3000 Z0.0000 F144.0
G01 X2.4364 Y0.3000 Z0.0000 F144.0
G01 X2.4520 Y0.3000 Z0.0000 F144.0
G01 X2.4676 Y0.3000 Z0.0000 F144.0
G01 X2.4833 Y0.3000 Z0.0000 F144.0
G01 X2.4989 Y0.3000 Z0.0000 F144.0
G01 X2.5145 Y0.3000 Z0.0000 F144.0
G01 X2.5302 Y0.3000 Z0.0000 F144.0
G01 X2.5458 Y0.3000 Z0.0000 F144.0
G01 X2.5615 Y0.3000 Z0.0000 F144.0
G01 X2.5771 Y0.3000 Z0.0000 F144.0
G01 X2.5927 Y0.3000 Z0.0000 F144.0
G01 X2.6084 Y0.3000 Z0.0000 F144.0
G01 X2.6240 Y0.3000 Z0.0000 F144.0
G01 X2.6396 Y0.3000 Z0.0000 F144.0
G01 X2.6553 Y0.3000 Z0.0000 F144.0
G01 X2.6709 Y0.3000 Z0.0000 F144.0
G01 X2.6865 Y0.3000 Z0.0000 F144.0
G01 X2.7022 Y0.3000 Z0.0000 F144.0
G01 X2.7178 Y0.3000 Z0.0000 F144.0
G01 X2.7335 Y0.3000 Z0.0000 F144.0
G01 X2.7491 Y0.3000 Z0.0000 F144.0
G01 X2.7647 Y0.3000 Z0.0000 F144.0
G01 X2.7804 Y0.3000 Z0.0000 F144.0
G01 X2.7960 Y0.3000 Z0.0000 F144.0
G01 X2.8116 Y0.3000 Z0.0000 F144.0
G01 X2.8273 Y0.3000 Z0.0000 F144.0
G01 X2.8429 Y0.3000 Z0.0000 F144.0
G01 X2.8585 Y0.3000 Z0.0000 F144.0
G01 X2.8742 Y0.3000 Z0.0000 F144.0
G01 X2.8898 Y0.3000 Z0.0000 F144.0
G01 X2.9055 Y0.3000 Z0.0000 F144.0
G01 X2.9211 Y0.3000 Z0.0000 F144.0
G01 X2.9367 Y0.3000 Z0.0000 F144.0
G01 X2.9524 Y0.3000 Z0.0000 F144.0
G01 X2.9680 Y0.3000 Z0.0000 F144.0
G01 X2.9836 Y0.3000 Z0.0000 F144.0
G01 X2.9993 Y0.3000 Z0.0000 F144.0
G01 X3.0149 Y0.3000 Z0.0000 F144.0
G01 X3.0305 Y0.3000 Z0.0000 F144.0
G01 X3.0462 Y0.3000 Z0.0000 F144.0
G01 X3.0618 Y0.3000 Z0.0000 F144.0
G01 X3.0775 Y0.3000 Z0.0000 F144.0
G01 X3.0931 Y0.3000 Z0.0000 F144.0
G01 X3.1087 Y0.3000 Z0.0000 F144.0
G01 X3.1244 Y0.3000 Z0.0000 F144.0
G01 X3.1400 Y0.3000 Z0.0000 F144.0
G01 X3.1556 Y0.3000 Z0.0000 F144.0
G01 X3.1713 Y0.3000 Z0.0000 F144.0
G01 X3.1869 Y0.3000 Z0.0000 F144.0
G01 X3.2025 Y0.3000 Z0.0000 F144.0
G01 X3.2182 Y0.3000 Z0.0000 F144.0
G01 X3.2338 Y0.3000 Z0.0000 F144.0
G01 X3.2495 Y0.3000 Z0.0000 F144.0
G01 X3.2651 Y0.3000 Z0.0000 F144.0
G01 X3.2807 Y0.3000 Z0.0000 F144.0
G01 X3.2964 Y0.3000 Z0.0000 F144.0
G01 X3.3120 Y0.3000 Z0.0000 F144.0
G01 X3.3276 Y0.3000 Z0.0000 F144.0
G01 X3.3433 Y0.3000 Z0.0000 F144.0
G01 X3.3589 Y0.3000 Z0.0000 F144.0
G01 X3.3745 Y0.3000 Z0.0000 F144.0
G01 X3.3902 Y0.3000 Z0.0000 F144.0
G01 X3.4058 Y0.3000 Z0.0000 F144.0
G01 X3.4215 Y0.3000 Z0.0000 F144.0
G01 X3.4371 Y0.3000 Z0.0000 F144.0
G01 X3.4527 Y0.3000 Z0.0000 F144.0
G01 X3.4684 Y0.3000 Z0.0000 F144.0
G01 X3.4840 Y0.3000 Z0.0000 F144.0
G01 X3.4996 Y0.3000 Z0.0000 F144.0
G01 X3.5153 Y0.3000 Z0.0000 F144.0
G01 X3.5309 Y0.3000 Z0.0000 F144.0
G01 X3.5465 Y0.3000 Z0.0000 F144.0
G01 X3.5622 Y0.3000 Z0.0000 F144.0
G01 X3.5778 Y0.3000 Z0.0000 F144.0
G01 X3.5935 Y0.3000 Z0.0000 F144.0
G01 X3.6091 Y0.3000 Z0.0000 F144.0
G01 X3.6247 Y0.3000 Z0.0000 F144.0
G01 X3.6404 Y0.3000 Z0.0000 F144.0
G01 X3.6560 Y0.3000 Z0.0000 F144.0
G01 X3.6716 Y0.3000 Z0.0000 F144.0
G01 X3.6873 Y0.3000 Z0.0000 F144.0
G01 X3.7029 Y0.3000 Z0.0000 F144.0
G01 X3.7185 Y0.3000 Z0.0000 F144.0
G01 X3.7342 Y0.3000 Z0.0000 F144.0
G01 X3.7498 Y0.3000 Z0.0000 F144.0
G01 X3.7655 Y0.3000 Z0.0000 F144.0
G01 X3.7811 Y0.3000 Z0.0000 F144.0
G01 X3.7967 Y0.3000 Z0.0000 F144.0
G01 X3.8124 Y0.3000 Z0.0000 F144.0
G01 X3.8280 Y0.3000 Z0.0000 F144.0
G01 X3.8436 Y0.3000 Z0.0000 F144.0
G01 X3.8593 Y0.3000 Z0.0000 F144.0
G01 X3.8749 Y0.3000 Z0.0000 F144.0
G01 X3.8905 Y0.3000 Z0.0000 F144.0
G01 X3.9062 Y0.3000 Z0.0000 F144.0
G01 X3.9218 Y0.3000 Z0.0000 F144.0
G01 X3.9375 Y0.3000 Z0.0000 F144.0
G01 X3.9531 Y0.3000 Z0.0000 F144.0
G01 X3.9687 Y0.3000 Z0.0000 F144.0
G01 X3.9844 Y0.3000 Z0.0000 F144.0
G01 X4.0000 Y0.3000 Z0.0000 F144.0
G01 X4.0156 Y0.3000 Z0.0000 F144.0
G01 X4.0313 Y0.3000 Z0.0000 F144.0
G01 X4.0469 Y0.3000 Z0.0000 F144.0
G01 X4.0625 Y0.3000 Z0.0000 F144.0
G01 X4.0782 Y0.3000 Z0.0000 F144.0
G01 X4.0938 Y0.3000 Z0.0000 F144.0
G01 X4.1095 Y0.3000 Z0.0000 F144.0
G01 X4.1251 Y0.3000 Z0.0000 F144.0
G01 X4.1407 Y0.3000 Z0.0000 F144.0
G01 X4.1564 Y0.3000 Z0.0000 F144.0
G01 X4.1720 Y0.3000 Z0.0000 F144.0
G01 X4.1876 Y0.3000 Z0.0000 F144.0
G01 X4.2033 Y0.3000 Z0.0000 F144.0
G01 X4.2189 Y0.3000 Z0.0000 F144.0
G01 X4.2345 Y0.3000 Z0.0000 F144.0
G01 X4.2502 Y0.3000 Z0.0000 F144.0
G01 X4.2658 Y0.3000 Z0.0000 F144.0
G01 X4.2815 Y0.3000 Z0.0000 F144.0
G01 X4.2971 Y0.3000 Z0.0000 F144.0
G01 X4.3127 Y0.3000 Z0.0000 F144.0
G01 X4.3284 Y0.3000 Z0.0000 F144.0
G01 X4.3440 Y0.3000 Z0.0000 F144.0
G01 X4.3596 Y0.3000 Z0.0000 F144.0
G01 X4.3753 Y0.3000 Z0.0000 F144.0
G01 X4.3909 Y0.3000 Z0.0000 F144.0
G01 X4.4065 Y0.3000 Z0.0000 F144.0
G01 X4.4222 Y0.3000 Z0.0000 F144.0
G01 X4.4378 Y0.3000 Z0.0000 F144.0
G01 X4.4535 Y0.3000 Z0.0000 F144.0
G01 X4.4691 Y0.3000 Z0.0000 F144.0
G01 X4.4847 Y0.3000 Z0.0000 F144.0
G01 X4.5004 Y0.3000 Z0.0000 F144.0
G01 X4.5160 Y0.3000 Z0.0000 F144.0
G01 X4.5316 Y0.3000 Z0.0000 F144.0
G01 X4.5473 Y0.3000 Z0.0000 F144.0
G01 X4.5629 Y0.3000 Z0.0000 F144.0
G01 X4.5785 Y0.3000 Z0.0000 F144.0
G01 X4.5942 Y0.3000 Z0.0000 F144.0
G01 X4.6098 Y0.3000 Z0.0000 F144.0
G01 X4.6255 Y0.3000 Z0.0000 F144.0
G01 X4.6411 Y0.3000 Z0.0000 F144.0
G01 X4.6567 Y0.3000 Z0.0000 F144.0
G01 X4.6724 Y0.3000 Z0.0000 F144.0
G01 X4.6880 Y0.3000 Z0.0000 F144.0
G01 X4.7036 Y0.3000 Z0.0000 F144.0
G01 X4.7193 Y0.3000 Z0.0000 F144.0
G01 X4.7349 Y0.3000 Z0.0000 F144.0
G01 X4.7505 Y0.3000 Z0.0000 F144.0
G01 X4.7662 Y0.3000 Z0.0000 F144.0
G01 X4.7818 Y0.3000 Z0.0000 F144.0
G01 X4.7975 Y0.3000 Z0.0000 F144.0
G01 X4.8131 Y0.3000 Z0.0000 F144.0
G01 X4.8287 Y0.3000 Z0.0000 F144.0
G01 X4.8444 Y0.3000 Z0.0000 F144.0
G01 X4.8600 Y0.3000 Z0.0000 F144.0
G01 X4.8756 Y0.3000 Z0.0000 F144.0
G01 X4.8913 Y0.3000 Z0.0000 F144.0
G01 X4.9069 Y0.3000 Z0.0000 F144.0
G01 X4.9225 Y0.3000 Z0.0000 F144.0
G01 X4.9382 Y0.3000 Z0.0000 F144.0
G01 X4.9538 Y0.3000 Z0.0000 F144.0
G01 X4.9695 Y0.3000 Z0.0000 F144.0
G01 X4.9851 Y0.3000 Z0.0000 F144.0
G01 X5.0007 Y0.3000 Z0.0000 F144.0
G01 X5.0164 Y0.3000 Z0.0000 F144.0
G01 X5.0320 Y0.3000 Z0.0000 F144.0
G01 X5.0476 Y0.3000 Z0.0000 F144.0
G01 X5.0633 Y0.3000 Z0.0000 F144.0
G01 X5.0789 Y0.3000 Z0.0000 F144.0
G01 X5.0945 Y0.3000 Z0.0000 F144.0
G01 X5.1102 Y0.3000 Z0.0000 F144.0
G01 X5.1258 Y0.3000 Z0.0000 F144.0
G01 X5.1415 Y0.3000 Z0.0000 F144.0
G01 X5.1571 Y0.3000 Z0.0000 F144.0
G01 X5.1727 Y0.3000 Z0.0000 F144.0
G01 X5.1884 Y0.3000 Z0.0000 F144.0
G01 X5.2040 Y0.3000 Z0.0000 F144.0
G01 X5.2196 Y0.3000 Z0.0000 F144.0
G01 X5.2353 Y0.3000 Z0.0000 F144.0
G01 X5.2509 Y0.3000 Z0.0000 F144.0
G01 X5.2665 Y0.3000 Z0.0000 F144.0
G01 X5.2822 Y0.3000 Z0.0000 F144.0
G01 X5.2978 Y0.3000 Z0.0000 F144.0
G01 X5.3135 Y0.3000 Z0.0000 F144.0
G01 X5.3291 Y0.3000 Z0.0000 F144.0
G01 X5.3447 Y0.3000 Z0.0000 F144.0
G01 X5.3604 Y0.3000 Z0.0000 F144.0
G01 X5.3760 Y0.3000 Z0.0000 F144.0
G01 X5.3916 Y0.3000 Z0.0000 F144.0
G01 X5.4073 Y0.3000 Z0.0000 F144.0
G01 X5.4229 Y0.3000 Z0.0000 F144.0
G01 X5.4385 Y0.3000 Z0.0000 F144.0
G01 X5.4542 Y0.3000 Z0.0000 F144.0
G01 X5.4698 Y0.3000 Z0.0000 F144.0
G01 X5.4855 Y0.3000 Z0.0000 F144.0
G01 X5.5011 Y0.3000 Z0.0000 F144.0
G01 X5.5167 Y0.3000 Z0.0000 F144.0
G01 X5.5324 Y0.3000 Z0.0000 F144.0
G01 X5.5480 Y0.3000 Z0.0000 F144.0
G01 X5.5636 Y0.3000 Z0.0000 F144.0
G01 X5.5793 Y0.3000 Z0.0000 F144.0
G01 X5.5949 Y0.3000 Z0.0000 F144.0
G01 X5.6105 Y0.3000 Z0.0000 F144.0
G01 X5.6262 Y0.3000 Z0.0000 F144.0
G01 X5.6418 Y0.3000 Z0.0000 F144.0
G01 X5.6575 Y0.3000 Z0.0000 F144.0
G01 X5.6731 Y0.3000 Z0.0000 F144.0
G01 X5.6887 Y0.3000 Z0.0000 F144.0
G01 X5.7044 Y0.3000 Z0.0000 F144.0
G01 X5.7200 Y0.3000 Z0.0000 F144.0
G01 X5.7356 Y0.3000 Z0.0000 F144.0
G01 X5.7513 Y0.3000 Z0.0000 F144.0
G01 X5.7669 Y0.3000 Z0.0000 F144.0
G01 X5.7825 Y0.3000 Z0.0000 F144.0
G01 X5.7982 Y0.3000 Z0.0000 F144.0
G01 X5.8138 Y0.3000 Z0.0000 F144.0
G01 X5.8295 Y0.3000 Z0.0000 F144.0
G01 X5.8451 Y0.3000 Z0.0000 F144.0
G01 X5.8607 Y0.3000 Z0.0000 F144.0
G01 X5.8764 Y0.3000 Z0.0000 F144.0
G01 X5.8920 Y0.3000 Z0.0000 F144.0
G01 X5.9076 Y0.3000 Z0.0000 F144.0
G01 X5.9233 Y0.3000 Z0.0000 F144.0
G01 X5.9389 Y0.3000 Z0.0000 F144.0
G01 X5.9545 Y0.3000 Z0.0000 F144.0
G01 X5.9702 Y0.3000 Z0.0000 F144.0
G01 X5.9858 Y0.3000 Z0.0000 F144.0
G01 X6.0015 Y0.3000 Z0.0000 F144.0
G01 X6.0171 Y0.3000 Z0.0000 F144.0
G01 X6.0327 Y0.3000 Z0.0000 F144.0
G01 X6.0484 Y0.3000 Z0.0000 F144.0
G01 X6.0640 Y0.3000 Z0.0000 F144.0
G01 X6.0796 Y0.3000 Z0.0000 F144.0
G01 X6.0953 Y0.3000 Z0.0000 F144.0
G01 X6.1109 Y0.3000 Z0.0000 F144.0
G01 X6.1265 Y0.3000 Z0.0000 F144.0
G01 X6.1422 Y0.3000 Z0.0000 F144.0
G01 X6.1578 Y0.3000 Z0.0000 F144.0
G01 X6.1735 Y0.3000 Z0.0000 F144.0
G01 X6.1891 Y0.3000 Z0.0000 F144.0
G01 X6.2047 Y0.3000 Z0.0000 F144.0
G01 X6.2204 Y0.3000 Z0.0000 F144.0
G01 X6.2360 Y0.3000 Z0.0000 F144.0
G01 X6.2516 Y0.3000 Z0.0000 F144.0
G01 X6.2673 Y0.3000 Z0.0000 F144.0
G01 X6.2829 Y0.3000 Z0.0000 F144.0
G01 X6.2985 Y0.3000 Z0.0000 F144.0
G01 X6.3142 Y0.3000 Z0.0000 F144.0
G01 X6.3298 Y0.3000 Z0.0000 F144.0
G01 X6.3455 Y0.3000 Z0.0000 F144.0
G01 X6.3611 Y0.3000 Z0.0000 F144.0
G01 X6.3767 Y0.3000 Z0.0000 F144.0
G01 X6.3924 Y0.3000 Z0.0000 F144.0
G01 X6.4080 Y0.3000 Z0.0000 F144.0
G01 X6.4236 Y0.3000 Z0.0000 F144.0
G01 X6.4393 Y0.3000 Z0.0000 F144.0
G01 X6.4549 Y0.3000 Z0.0000 F144.0
G01 X6.4705 Y0.3000 Z0.0000 F144.0
G01 X6.4862 Y0.3000 Z0.0000 F144.0
G01 X6.5018 Y0.3000 Z0.0000 F144.0
G01 X6.5175 Y0.3000 Z0.0000 F144.0
G01 X6.5331 Y0.3000 Z0.0000 F144.0
G01 X6.5487 Y0.3000 Z0.0000 F144.0
G01 X6.5644 Y0.3000 Z0.0000 F144.0
G01 X6.5800 Y0.3000 Z0.0000 F144.0
G01 X6.5956 Y0.3000 Z0.0000 F144.0
G01 X6.6113 Y0.3000 Z0.0000 F144.0
G01 X6.6269 Y0.3000 Z0.0000 F144.0
G01 X6.6425 Y0.3000 Z0.0000 F144.0
G01 X6.6582 Y0.3000 Z0.0000 F144.0
G01 X6.6738 Y0.3000 Z0.0000 F144.0
G01 X6.6895 Y0.3000 Z0.0000 F144.0
G01 X6.7051 Y0.3000 Z0.0000 F144.0
G01 X6.7207 Y0.3000 Z0.0000 F144.0
G01 X6.7364 Y0.3000 Z0.0000 F144.0
G01 X6.7520 Y0.3000 Z0.0000 F144.0
G01 X6.7676 Y0.3000 Z0.0000 F144.0
G01 X6.7833 Y0.3000 Z0.0000 F144.0
G01 X6.7989 Y0.3000 Z0.0000 F144.0
G01 X6.8145 Y0.3000 Z0.0000 F144.0
G01 X6.8302 Y0.3000 Z0.0000 F144.0
G01 X6.8458 Y0.3000 Z0.0000 F144.0
G01 X6.8615 Y0.3000 Z0.0000 F144.0
G01 X6.8771 Y0.3000 Z0.0000 F144.0
G01 X6.8927 Y0.3000 Z0.0000 F144.0
G01 X6.9084 Y0.3000 Z0.0000 F144.0
G01 X6.9240 Y0.3000 Z0.0000 F144.0
G01 X6.9396 Y0.3000 Z0.0000 F144.0
G01 X6.9553 Y0.3000 Z0.0000 F144.0
G01 X6.9709 Y0.3000 Z0.0000 F144.0
G01 X6.9865 Y0.3000 Z0.0000 F144.0
G01 X7.0022 Y0.3000 Z0.0000 F144.0
G01 X7.0178 Y0.3000 Z0.0000 F144.0
G01 X7.0335 Y0.3000 Z0.0000 F144.0
G01 X7.0491 Y0.3000 Z0.0000 F144.0
G01 X7.0647 Y0.3000 Z0.0000 F144.0
G01 X7.0804 Y0.3000 Z0.0000 F144.0
G01 X7.0960 Y0.3000 Z0.0000 F144.0
G01 X7.1116 Y0.3000 Z0.0000 F144.0
G01 X7.1273 Y0.3000 Z0.0000 F144.0
G01 X7.1429 Y0.3000 Z0.0000 F144.0
G01 X7.1585 Y0.3000 Z0.0000 F144.0
G01 X7.1742 Y0.3000 Z0.0000 F144.0
G01 X7.1898 Y0.3000 Z0.0000 F144.0
G01 X7.2055 Y0.3000 Z0.0000 F144.0
G01 X7.2211 Y0.3000 Z0.0000 F144.0
G01 X7.2367 Y0.3000 Z0.0000 F144.0
G01 X7.2524 Y0.3000 Z0.0000 F144.0
G01 X7.2680 Y0.3000 Z0.0000 F144.0
G01 X7.2836 Y0.3000 Z0.0000 F144.0
G01 X7.2993 Y0.3000 Z0.0000 F144.0
G01 X7.3149 Y0.3000 Z0.0000 F144.0
G01 X7.3305 Y0.3000 Z0.0000 F144.0
G01 X7.3462 Y0.3000 Z0.0000 F144.0
G01 X7.3618 Y0.3000 Z0.0000 F144.0
G01 X7.3775 Y0.3000 Z0.0000 F144.0
G01 X7.3931 Y0.3000 Z0.0000 F144.0
G01 X7.4087 Y0.3000 Z0.0000 F144.0
G01 X7.4244 Y0.3000 Z0.0000 F144.0
G01 X7.4400 Y0.3000 Z0.0000 F144.0
G01 X7.4556 Y0.3000 Z0.0000 F144.0
G01 X7.4713 Y0.3000 Z0.0000 F144.0
G01 X7.4869 Y0.3000 Z0.0000 F144.0
G01 X7.5025 Y0.3000 Z0.0000 F144.0
G01 X7.5182 Y0.3000 Z0.0000 F144.0
G01 X7.5338 Y0.3000 Z0.0000 F144.0
G01 X7.5495 Y0.3000 Z0.0000 F144.0
G01 X7.5651 Y0.3000 Z0.0000 F144.0
G01 X7.5807 Y0.3000 Z0.0000 F144.0
G01 X7.5964 Y0.3000 Z0.0000 F144.0
G01 X7.6120 Y0.3000 Z0.0000 F144.0
G01 X7.6276 Y0.3000 Z0.0000 F144.0
G01 X7.6433 Y0.3000 Z0.0000 F144.0
G01 X7.6589 Y0.3000 Z0.0000 F144.0
G01 X7.6745 Y0.3000 Z0.0000 F144.0
G01 X7.6902 Y0.3000 Z0.0000 F144.0
G01 X7.7058 Y0.3000 Z0.0000 F144.0
G01 X7.7215 Y0.3000 Z0.0000 F144.0
G01 X7.7371 Y0.3000 Z0.0000 F144.0
G01 X7.7527 Y0.3000 Z0.0000 F144.0
G01 X7.7684 Y0.3000 Z0.0000 F144.0
G01 X7.7840 Y0.3000 Z0.0000 F144.0
G01 X7.7996 Y0.3000 Z0.0000 F144.0
G01 X7.8153 Y0.3000 Z0.0000 F144.0
G01 X7.8309 Y0.3000 Z0.0000 F144.0
G01 X7.8465 Y0.3000 Z0.0000 F144.0
G01 X7.8622 Y0.3000 Z0.0000 F144.0
G01 X7.8778 Y0.3000 Z0.0000 F144.0
G01 X7.8935 Y0.3000 Z0.0000 F144.0
G01 X7.9091 Y0.3000 Z0.0000 F144.0
G01 X7.9247 Y0.3000 Z0.0000 F144.0
G01 X7.9404 Y0.3000 Z0.0000 F144.0
G01 X7.9560 Y0.3000 Z0.0000 F144.0
G01 X7.9716 Y0.3000 Z0.0000 F144.0
G01 X7.9873 Y0.3000 Z0.0000 F144.0
G01 X8.0029 Y0.3000 Z-0.0660 F144.0
G01 X8.0185 Y0.3000 Z-0.0660 F144.0
G01 X8.0342 Y0.3000 Z-0.0660 F144.0
G01 X8.0498 Y0.3000 Z-0.0660 F144.0
G01 X8.0655 Y0.3000 Z-0.0660 F144.0
G01 X8.0811 Y0.3000 Z-0.0660 F144.0
G01 X8.0967 Y0.3000 Z-0.0660 F144.0
G01 X8.1124 Y0.3000 Z-0.0660 F144.0
G01 X8.1280 Y0.3000 Z-0.0660 F144.0
G01 X8.1436 Y0.3000 Z-0.0660 F144.0
G01 X8.1593 Y0.3000 Z-0.0660 F144.0
G01 X8.1749 Y0.3000 Z-0.0660 F144.0
G01 X8.1905 Y0.3000 Z-0.0660 F144.0
G01 X8.2062 Y0.3000 Z-0.0660 F144.0
G01 X8.2218 Y0.3000 Z-0.0660 F144.0
G01 X8.2375 Y0.3000 Z-0.0660 F144.0
G01 X8.2531 Y0.3000 Z-0.0660 F144.0
G01 X8.2687 Y0.3000 Z-0.0660 F144.0
G01 X8.2844 Y0.3000 Z-0.0660 F144.0
G01 X8.3000 Y0.3000 Z-0.0660 F144.0
G01 Z0.2000 F180.0  (lift)
G01 X8.3000 Y0.4500 F180.0  (row Y=0.450)
G01 Z-0.0660 F20.0  (entry plunge (outside stock))
G01 X8.3000 Y0.4500 Z-0.0660 F144.0
G01 X8.2844 Y0.4500 Z-0.0660 F144.0
G01 X8.2687 Y0.4500 Z-0.0660 F144.0
G01 X8.2531 Y0.4500 Z-0.0660 F144.0
G01 X8.2375 Y0.4500 Z-0.0660 F144.0
G01 X8.2218 Y0.4500 Z-0.0660 F144.0
G01 X8.2062 Y0.4500 Z-0.0660 F144.0
G01 X8.1905 Y0.4500 Z-0.0660 F144.0
G01 X8.1749 Y0.4500 Z-0.0660 F144.0
G01 X8.1593 Y0.4500 Z-0.0660 F144.0
G01 X8.1436 Y0.4500 Z-0.0660 F144.0
G01 X8.1280 Y0.4500 Z-0.0660 F144.0
G01 X8.1124 Y0.4500 Z-0.0660 F144.0
G01 X8.0967 Y0.4500 Z-0.0660 F144.0
G01 X8.0811 Y0.4500 Z-0.0660 F144.0
G01 X8.0655 Y0.4500 Z-0.0660 F144.0
G01 X8.0498 Y0.4500 Z-0.0660 F144.0
G01 X8.0342 Y0.4500 Z-0.0660 F144.0
G01 X8.0185 Y0.4500 Z-0.0660 F144.0
G01 X8.0029 Y0.4500 Z-0.0660 F144.0
G01 X7.9873 Y0.4500 Z0.0000 F144.0
G01 X7.9716 Y0.4500 Z0.0000 F144.0
G01 X7.9560 Y0.4500 Z0.0000 F144.0
G01 X7.9404 Y0.4500 Z0.0000 F144.0
G01 X7.9247 Y0.4500 Z0.0000 F144.0
G01 X7.9091 Y0.4500 Z0.0000 F144.0
G01 X7.8935 Y0.4500 Z0.0000 F144.0
G01 X7.8778 Y0.4500 Z0.0000 F144.0
G01 X7.8622 Y0.4500 Z0.0000 F144.0
G01 X7.8465 Y0.4500 Z0.0000 F144.0
G01 X7.8309 Y0.4500 Z0.0000 F144.0
G01 X7.8153 Y0.4500 Z0.0000 F144.0
G01 X7.7996 Y0.4500 Z0.0000 F144.0
G01 X7.7840 Y0.4500 Z0.0000 F144.0
G01 X7.7684 Y0.4500 Z0.0000 F144.0
G01 X7.7527 Y0.4500 Z0.0000 F144.0
G01 X7.7371 Y0.4500 Z0.0000 F144.0
G01 X7.7215 Y0.4500 Z0.0000 F144.0
G01 X7.7058 Y0.4500 Z0.0000 F144.0
G01 X7.6902 Y0.4500 Z0.0000 F144.0
G01 X7.6745 Y0.4500 Z0.0000 F144.0
G01 X7.6589 Y0.4500 Z0.0000 F144.0
G01 X7.6433 Y0.4500 Z0.0000 F144.0
G01 X7.6276 Y0.4500 Z0.0000 F144.0
G01 X7.6120 Y0.4500 Z0.0000 F144.0
G01 X7.5964 Y0.4500 Z0.0000 F144.0
G01 X7.5807 Y0.4500 Z0.0000 F144.0
G01 X7.5651 Y0.4500 Z0.0000 F144.0
G01 X7.5495 Y0.4500 Z0.0000 F144.0
G01 X7.5338 Y0.4500 Z0.0000 F144.0
G01 X7.5182 Y0.4500 Z0.0000 F144.0
G01 X7.5025 Y0.4500 Z0.0000 F144.0
G01 X7.4869 Y0.4500 Z0.0000 F144.0
G01 X7.4713 Y0.4500 Z0.0000 F144.0
G01 X7.4556 Y0.4500 Z0.0000 F144.0
G01 X7.4400 Y0.4500 Z0.0000 F144.0
G01 X7.4244 Y0.4500 Z0.0000 F144.0
G01 X7.4087 Y0.4500 Z0.0000 F144.0
G01 X7.3931 Y0.4500 Z0.0000 F144.0
G01 X7.3775 Y0.4500 Z0.0000 F144.0
G01 X7.3618 Y0.4500 Z0.0000 F144.0
G01 X7.3462 Y0.4500 Z0.0000 F144.0
G01 X7.3305 Y0.4500 Z0.0000 F144.0
G01 X7.3149 Y0.4500 Z0.0000 F144.0
G01 X7.2993 Y0.4500 Z0.0000 F144.0
G01 X7.2836 Y0.4500 Z0.0000 F144.0
G01 X7.2680 Y0.4500 Z0.0000 F144.0
G01 X7.2524 Y0.4500 Z0.0000 F144.0
G01 X7.2367 Y0.4500 Z0.0000 F144.0
G01 X7.2211 Y0.4500 Z0.0000 F144.0
G01 X7.2055 Y0.4500 Z0.0000 F144.0
G01 X7.1898 Y0.4500 Z0.0000 F144.0
G01 X7.1742 Y0.4500 Z0.0000 F144.0
G01 X7.1585 Y0.4500 Z0.0000 F144.0
G01 X7.1429 Y0.4500 Z0.0000 F144.0
G01 X7.1273 Y0.4500 Z0.0000 F144.0
G01 X7.1116 Y0.4500 Z0.0000 F144.0
G01 X7.0960 Y0.4500 Z0.0000 F144.0
G01 X7.0804 Y0.4500 Z0.0000 F144.0
G01 X7.0647 Y0.4500 Z0.0000 F144.0
G01 X7.0491 Y0.4500 Z0.0000 F144.0
G01 X7.0335 Y0.4500 Z0.0000 F144.0
G01 X7.0178 Y0.4500 Z0.0000 F144.0
G01 X7.0022 Y0.4500 Z0.0000 F144.0
G01 X6.9865 Y0.4500 Z0.0000 F144.0
G01 X6.9709 Y0.4500 Z0.0000 F144.0
G01 X6.9553 Y0.4500 Z0.0000 F144.0
G01 X6.9396 Y0.4500 Z0.0000 F144.0
G01 X6.9240 Y0.4500 Z0.0000 F144.0
G01 X6.9084 Y0.4500 Z0.0000 F144.0
G01 X6.8927 Y0.4500 Z0.0000 F144.0
G01 X6.8771 Y0.4500 Z0.0000 F144.0
G01 X6.8615 Y0.4500 Z0.0000 F144.0
G01 X6.8458 Y0.4500 Z0.0000 F144.0
G01 X6.8302 Y0.4500 Z0.0000 F144.0
G01 X6.8145 Y0.4500 Z0.0000 F144.0
G01 X6.7989 Y0.4500 Z0.0000 F144.0
G01 X6.7833 Y0.4500 Z0.0000 F144.0
G01 X6.7676 Y0.4500 Z0.0000 F144.0
G01 X6.7520 Y0.4500 Z0.0000 F144.0
G01 X6.7364 Y0.4500 Z0.0000 F144.0
G01 X6.7207 Y0.4500 Z0.0000 F144.0
G01 X6.7051 Y0.4500 Z0.0000 F144.0
G01 X6.6895 Y0.4500 Z0.0000 F144.0
G01 X6.6738 Y0.4500 Z0.0000 F144.0
G01 X6.6582 Y0.4500 Z0.0000 F144.0
G01 X6.6425 Y0.4500 Z0.0000 F144.0
G01 X6.6269 Y0.4500 Z0.0000 F144.0
G01 X6.6113 Y0.4500 Z0.0000 F144.0
G01 X6.5956 Y0.4500 Z0.0000 F144.0
G01 X6.5800 Y0.4500 Z0.0000 F144.0
G01 X6.5644 Y0.4500 Z0.0000 F144.0
G01 X6.5487 Y0.4500 Z0.0000 F144.0
G01 X6.5331 Y0.4500 Z0.0000 F144.0
G01 X6.5175 Y0.4500 Z0.0000 F144.0
G01 X6.5018 Y0.4500 Z0.0000 F144.0
G01 X6.4862 Y0.4500 Z0.0000 F144.0
G01 X6.4705 Y0.4500 Z0.0000 F144.0
G01 X6.4549 Y0.4500 Z0.0000 F144.0
G01 X6.4393 Y0.4500 Z0.0000 F144.0
G01 X6.4236 Y0.4500 Z0.0000 F144.0
G01 X6.4080 Y0.4500 Z0.0000 F144.0
G01 X6.3924 Y0.4500 Z0.0000 F144.0
G01 X6.3767 Y0.4500 Z0.0000 F144.0
G01 X6.3611 Y0.4500 Z0.0000 F144.0
G01 X6.3455 Y0.4500 Z0.0000 F144.0
G01 X6.3298 Y0.4500 Z0.0000 F144.0
G01 X6.3142 Y0.4500 Z0.0000 F144.0
G01 X6.2985 Y0.4500 Z0.0000 F144.0
G01 X6.2829 Y0.4500 Z0.0000 F144.0
G01 X6.2673 Y0.4500 Z0.0000 F144.0
G01 X6.2516 Y0.4500 Z0.0000 F144.0
G01 X6.2360 Y0.4500 Z0.0000 F144.0
G01 X6.2204 Y0.4500 Z0.0000 F144.0
G01 X6.2047 Y0.4500 Z0.0000 F144.0
G01 X6.1891 Y0.4500 Z0.0000 F144.0
G01 X6.1735 Y0.4500 Z0.0000 F144.0
G01 X6.1578 Y0.4500 Z0.0000 F144.0
G01 X6.1422 Y0.4500 Z0.0000 F144.0
G01 X6.1265 Y0.4500 Z0.0000 F144.0
G01 X6.1109 Y0.4500 Z0.0000 F144.0
G01 X6.0953 Y0.4500 Z0.0000 F144.0
G01 X6.0796 Y0.4500 Z0.0000 F144.0
G01 X6.0640 Y0.4500 Z0.0000 F144.0
G01 X6.0484 Y0.4500 Z0.0000 F144.0
G01 X6.0327 Y0.4500 Z0.0000 F144.0
G01 X6.0171 Y0.4500 Z0.0000 F144.0
G01 X6.0015 Y0.4500 Z0.0000 F144.0
G01 X5.9858 Y0.4500 Z0.0000 F144.0
G01 X5.9702 Y0.4500 Z0.0000 F144.0
G01 X5.9545 Y0.4500 Z0.0000 F144.0
G01 X5.9389 Y0.4500 Z0.0000 F144.0
G01 X5.9233 Y0.4500 Z0.0000 F144.0
G01 X5.9076 Y0.4500 Z0.0000 F144.0
G01 X5.8920 Y0.4500 Z0.0000 F144.0
G01 X5.8764 Y0.4500 Z0.0000 F144.0
G01 X5.8607 Y0.4500 Z0.0000 F144.0
G01 X5.8451 Y0.4500 Z0.0000 F144.0
G01 X5.8295 Y0.4500 Z0.0000 F144.0
G01 X5.8138 Y0.4500 Z0.0000 F144.0
G01 X5.7982 Y0.4500 Z0.0000 F144.0
G01 X5.7825 Y0.4500 Z0.0000 F144.0
G01 X5.7669 Y0.4500 Z0.0000 F144.0
G01 X5.7513 Y0.4500 Z0.0000 F144.0
G01 X5.7356 Y0.4500 Z0.0000 F144.0
G01 X5.7200 Y0.4500 Z0.0000 F144.0
G01 X5.7044 Y0.4500 Z0.0000 F144.0
G01 X5.6887 Y0.4500 Z0.0000 F144.0
G01 X5.6731 Y0.4500 Z0.0000 F144.0
G01 X5.6575 Y0.4500 Z0.0000 F144.0
G01 X5.6418 Y0.4500 Z0.0000 F144.0
G01 X5.6262 Y0.4500 Z0.0000 F144.0
G01 X5.6105 Y0.4500 Z0.0000 F144.0
G01 X5.5949 Y0.4500 Z0.0000 F144.0
G01 X5.5793 Y0.4500 Z0.0000 F144.0
G01 X5.5636 Y0.4500 Z0.0000 F144.0
G01 X5.5480 Y0.4500 Z0.0000 F144.0
G01 X5.5324 Y0.4500 Z0.0000 F144.0
G01 X5.5167 Y0.4500 Z0.0000 F144.0
G01 X5.5011 Y0.4500 Z0.0000 F144.0
G01 X5.4855 Y0.4500 Z0.0000 F144.0
G01 X5.4698 Y0.4500 Z0.0000 F144.0
G01 X5.4542 Y0.4500 Z0.0000 F144.0
G01 X5.4385 Y0.4500 Z0.0000 F144.0
G01 X5.4229 Y0.4500 Z0.0000 F144.0
G01 X5.4073 Y0.4500 Z0.0000 F144.0
G01 X5.3916 Y0.4500 Z0.0000 F144.0
G01 X5.3760 Y0.4500 Z0.0000 F144.0
G01 X5.3604 Y0.4500 Z0.0000 F144.0
G01 X5.3447 Y0.4500 Z0.0000 F144.0
G01 X5.3291 Y0.4500 Z0.0000 F144.0
G01 X5.3135 Y0.4500 Z0.0000 F144.0
G01 X5.2978 Y0.4500 Z0.0000 F144.0
G01 X5.2822 Y0.4500 Z0.0000 F144.0
G01 X5.2665 Y0.4500 Z0.0000 F144.0
G01 X5.2509 Y0.4500 Z0.0000 F144.0
G01 X5.2353 Y0.4500 Z0.0000 F144.0
G01 X5.2196 Y0.4500 Z0.0000 F144.0
G01 X5.2040 Y0.4500 Z0.0000 F144.0
G01 X5.1884 Y0.4500 Z0.0000 F144.0
G01 X5.1727 Y0.4500 Z0.0000 F144.0
G01 X5.1571 Y0.4500 Z0.0000 F144.0
G01 X5.1415 Y0.4500 Z0.0000 F144.0
G01 X5.1258 Y0.4500 Z0.0000 F144.0
G01 X5.1102 Y0.4500 Z0.0000 F144.0
G01 X5.0945 Y0.4500 Z0.0000 F144.0
G01 X5.0789 Y0.4500 Z0.0000 F144.0
G01 X5.0633 Y0.4500 Z0.0000 F144.0
G01 X5.0476 Y0.4500 Z0.0000 F144.0
G01 X5.0320 Y0.4500 Z0.0000 F144.0
G01 X5.0164 Y0.4500 Z0.0000 F144.0
G01 X5.0007 Y0.4500 Z0.0000 F144.0
G01 X4.9851 Y0.4500 Z0.0000 F144.0
G01 X4.9695 Y0.4500 Z0.0000 F144.0
G01 X4.9538 Y0.4500 Z0.0000 F144.0
G01 X4.9382 Y0.4500 Z0.0000 F144.0
G01 X4.9225 Y0.4500 Z0.0000 F144.0
G01 X4.9069 Y0.4500 Z0.0000 F144.0
G01 X4.8913 Y0.4500 Z0.0000 F144.0
G01 X4.8756 Y0.4500 Z0.0000 F144.0
G01 X4.8600 Y0.4500 Z0.0000 F144.0
G01 X4.8444 Y0.4500 Z0.0000 F144.0
G01 X4.8287 Y0.4500 Z0.0000 F144.0
G01 X4.8131 Y0.4500 Z0.0000 F144.0
G01 X4.7975 Y0.4500 Z0.0000 F144.0
G01 X4.7818 Y0.4500 Z0.0000 F144.0
G01 X4.7662 Y0.4500 Z0.0000 F144.0
G01 X4.7505 Y0.4500 Z0.0000 F144.0
G01 X4.7349 Y0.4500 Z0.0000 F144.0
G01 X4.7193 Y0.4500 Z0.0000 F144.0
G01 X4.7036 Y0.4500 Z0.0000 F144.0
G01 X4.6880 Y0.4500 Z0.0000 F144.0
G01 X4.6724 Y0.4500 Z0.0000 F144.0
G01 X4.6567 Y0.4500 Z0.0000 F144.0
G01 X4.6411 Y0.4500 Z0.0000 F144.0
G01 X4.6255 Y0.4500 Z0.0000 F144.0
G01 X4.6098 Y0.4500 Z0.0000 F144.0
G01 X4.5942 Y0.4500 Z0.0000 F144.0
G01 X4.5785 Y0.4500 Z0.0000 F144.0
G01 X4.5629 Y0.4500 Z0.0000 F144.0
G01 X4.5473 Y0.4500 Z0.0000 F144.0
G01 X4.5316 Y0.4500 Z0.0000 F144.0
G01 X4.5160 Y0.4500 Z0.0000 F144.0
G01 X4.5004 Y0.4500 Z0.0000 F144.0
G01 X4.4847 Y0.4500 Z0.0000 F144.0
G01 X4.4691 Y0.4500 Z0.0000 F144.0
G01 X4.4535 Y0.4500 Z0.0000 F144.0
G01 X4.4378 Y0.4500 Z0.0000 F144.0
G01 X4.4222 Y0.4500 Z0.0000 F144.0
G01 X4.4065 Y0.4500 Z0.0000 F144.0
G01 X4.3909 Y0.4500 Z0.0000 F144.0
G01 X4.3753 Y0.4500 Z0.0000 F144.0
G01 X4.3596 Y0.4500 Z0.0000 F144.0
G01 X4.3440 Y0.4500 Z0.0000 F144.0
G01 X4.3284 Y0.4500 Z0.0000 F144.0
G01 X4.3127 Y0.4500 Z0.0000 F144.0
G01 X4.2971 Y0.4500 Z0.0000 F144.0
G01 X4.2815 Y0.4500 Z0.0000 F144.0
G01 X4.2658 Y0.4500 Z0.0000 F144.0
G01 X4.2502 Y0.4500 Z0.0000 F144.0
G01 X4.2345 Y0.4500 Z0.0000 F144.0
G01 X4.2189 Y0.4500 Z0.0000 F144.0
G01 X4.2033 Y0.4500 Z0.0000 F144.0
G01 X4.1876 Y0.4500 Z0.0000 F144.0
G01 X4.1720 Y0.4500 Z0.0000 F144.0
G01 X4.1564 Y0.4500 Z0.0000 F144.0
G01 X4.1407 Y0.4500 Z0.0000 F144.0
G01 X4.1251 Y0.4500 Z0.0000 F144.0
G01 X4.1095 Y0.4500 Z0.0000 F144.0
G01 X4.0938 Y0.4500 Z0.0000 F144.0
G01 X4.0782 Y0.4500 Z0.0000 F144.0
G01 X4.0625 Y0.4500 Z0.0000 F144.0
G01 X4.0469 Y0.4500 Z0.0000 F144.0
G01 X4.0313 Y0.4500 Z0.0000 F144.0
G01 X4.0156 Y0.4500 Z0.0000 F144.0
G01 X4.0000 Y0.4500 Z0.0000 F144.0
G01 X3.9844 Y0.4500 Z0.0000 F144.0
G01 X3.9687 Y0.4500 Z0.0000 F144.0
G01 X3.9531 Y0.4500 Z0.0000 F144.0
G01 X3.9375 Y0.4500 Z0.0000 F144.0
G01 X3.9218 Y0.4500 Z0.0000 F144.0
G01 X3.9062 Y0.4500 Z0.0000 F144.0
G01 X3.8905 Y0.4500 Z0.0000 F144.0
G01 X3.8749 Y0.4500 Z0.0000 F144.0
G01 X3.8593 Y0.4500 Z0.0000 F144.0
G01 X3.8436 Y0.4500 Z0.0000 F144.0
G01 X3.8280 Y0.4500 Z0.0000 F144.0
G01 X3.8124 Y0.4500 Z0.0000 F144.0
G01 X3.7967 Y0.4500 Z0.0000 F144.0
G01 X3.7811 Y0.4500 Z0.0000 F144.0
G01 X3.7655 Y0.4500 Z0.0000 F144.0
G01 X3.7498 Y0.4500 Z0.0000 F144.0
G01 X3.7342 Y0.4500 Z0.0000 F144.0
G01 X3.7185 Y0.4500 Z0.0000 F144.0
G01 X3.7029 Y0.4500 Z0.0000 F144.0
G01 X3.6873 Y0.4500 Z0.0000 F144.0
G01 X3.6716 Y0.4500 Z0.0000 F144.0
G01 X3.6560 Y0.4500 Z0.0000 F144.0
G01 X3.6404 Y0.4500 Z0.0000 F144.0
G01 X3.6247 Y0.4500 Z0.0000 F144.0
G01 X3.6091 Y0.4500 Z0.0000 F144.0
G01 X3.5935 Y0.4500 Z0.0000 F144.0
G01 X3.5778 Y0.4500 Z0.0000 F144.0
G01 X3.5622 Y0.4500 Z0.0000 F144.0
G01 X3.5465 Y0.4500 Z0.0000 F144.0
G01 X3.5309 Y0.4500 Z0.0000 F144.0
G01 X3.5153 Y0.4500 Z0.0000 F144.0
G01 X3.4996 Y0.4500 Z0.0000 F144.0
G01 X3.4840 Y0.4500 Z0.0000 F144.0
G01 X3.4684 Y0.4500 Z0.0000 F144.0
G01 X3.4527 Y0.4500 Z0.0000 F144.0
G01 X3.4371 Y0.4500 Z0.0000 F144.0
G01 X3.4215 Y0.4500 Z0.0000 F144.0
G01 X3.4058 Y0.4500 Z0.0000 F144.0
G01 X3.3902 Y0.4500 Z0.0000 F144.0
G01 X3.3745 Y0.4500 Z0.0000 F144.0
G01 X3.3589 Y0.4500 Z0.0000 F144.0
G01 X3.3433 Y0.4500 Z0.0000 F144.0
G01 X3.3276 Y0.4500 Z0.0000 F144.0
G01 X3.3120 Y0.4500 Z0.0000 F144.0
G01 X3.2964 Y0.4500 Z0.0000 F144.0
G01 X3.2807 Y0.4500 Z0.0000 F144.0
G01 X3.2651 Y0.4500 Z0.0000 F144.0
G01 X3.2495 Y0.4500 Z0.0000 F144.0
G01 X3.2338 Y0.4500 Z0.0000 F144.0
G01 X3.2182 Y0.4500 Z0.0000 F144.0
G01 X3.2025 Y0.4500 Z0.0000 F144.0
G01 X3.1869 Y0.4500 Z0.0000 F144.0
G01 X3.1713 Y0.4500 Z0.0000 F144.0
G01 X3.1556 Y0.4500 Z0.0000 F144.0
G01 X3.1400 Y0.4500 Z0.0000 F144.0
G01 X3.1244 Y0.4500 Z0.0000 F144.0
G01 X3.1087 Y0.4500 Z0.0000 F144.0
G01 X3.0931 Y0.4500 Z0.0000 F144.0
G01 X3.0775 Y0.4500 Z0.0000 F144.0
G01 X3.0618 Y0.4500 Z0.0000 F144.0
G01 X3.0462 Y0.4500 Z0.0000 F144.0
G01 X3.0305 Y0.4500 Z0.0000 F144.0
G01 X3.0149 Y0.4500 Z0.0000 F144.0
G01 X2.9993 Y0.4500 Z0.0000 F144.0
G01 X2.9836 Y0.4500 Z0.0000 F144.0
G01 X2.9680 Y0.4500 Z0.0000 F144.0
G01 X2.9524 Y0.4500 Z0.0000 F144.0
G01 X2.9367 Y0.4500 Z0.0000 F144.0
G01 X2.9211 Y0.4500 Z0.0000 F144.0
G01 X2.9055 Y0.4500 Z0.0000 F144.0
G01 X2.8898 Y0.4500 Z0.0000 F144.0
G01 X2.8742 Y0.4500 Z0.0000 F144.0
G01 X2.8585 Y0.4500 Z0.0000 F144.0
G01 X2.8429 Y0.4500 Z0.0000 F144.0
G01 X2.8273 Y0.4500 Z0.0000 F144.0
G01 X2.8116 Y0.4500 Z0.0000 F144.0
G01 X2.7960 Y0.4500 Z0.0000 F144.0
G01 X2.7804 Y0.4500 Z0.0000 F144.0
G01 X2.7647 Y0.4500 Z0.0000 F144.0
G01 X2.7491 Y0.4500 Z0.0000 F144.0
G01 X2.7335 Y0.4500 Z0.0000 F144.0
G01 X2.7178 Y0.4500 Z0.0000 F144.0
G01 X2.7022 Y0.4500 Z0.0000 F144.0
G01 X2.6865 Y0.4500 Z0.0000 F144.0
G01 X2.6709 Y0.4500 Z0.0000 F144.0
G01 X2.6553 Y0.4500 Z0.0000 F144.0
G01 X2.6396 Y0.4500 Z0.0000 F144.0
G01 X2.6240 Y0.4500 Z0.0000 F144.0
G01 X2.6084 Y0.4500 Z0.0000 F144.0
G01 X2.5927 Y0.4500 Z0.0000 F144.0
G01 X2.5771 Y0.4500 Z0.0000 F144.0
G01 X2.5615 Y0.4500 Z-0.0002 F144.0
G01 X2.5458 Y0.4500 Z-0.0003 F144.0
G01 X2.5302 Y0.4500 Z-0.0005 F144.0
G01 X2.5145 Y0.4500 Z-0.0006 F144.0
G01 X2.4989 Y0.4500 Z-0.0007 F144.0
G01 X2.4833 Y0.4500 Z-0.0009 F144.0
G01 X2.4676 Y0.4500 Z-0.0010 F144.0
G01 X2.4520 Y0.4500 Z-0.0012 F144.0
G01 X2.4364 Y0.4500 Z-0.0013 F144.0
G01 X2.4207 Y0.4500 Z-0.0014 F144.0
G01 X2.4051 Y0.4500 Z-0.0016 F144.0
G01 X2.3895 Y0.4500 Z-0.0017 F144.0
G01 X2.3738 Y0.4500 Z-0.0018 F144.0
G01 X2.3582 Y0.4500 Z-0.0020 F144.0
G01 X2.3425 Y0.4500 Z-0.0021 F144.0
G01 X2.3269 Y0.4500 Z-0.0023 F144.0
G01 X2.3113 Y0.4500 Z-0.0024 F144.0
G01 X2.2956 Y0.4500 Z-0.0025 F144.0
G01 X2.2800 Y0.4500 Z-0.0027 F144.0
G01 X2.2644 Y0.4500 Z-0.0028 F144.0
G01 X2.2487 Y0.4500 Z-0.0029 F144.0
G01 X2.2331 Y0.4500 Z-0.0031 F144.0
G01 X2.2175 Y0.4500 Z-0.0032 F144.0
G01 X2.2018 Y0.4500 Z-0.0033 F144.0
G01 X2.1862 Y0.4500 Z-0.0034 F144.0
G01 X2.1705 Y0.4500 Z-0.0036 F144.0
G01 X2.1549 Y0.4500 Z-0.0037 F144.0
G01 X2.1393 Y0.4500 Z-0.0038 F144.0
G01 X2.1236 Y0.4500 Z-0.0040 F144.0
G01 X2.1080 Y0.4500 Z-0.0041 F144.0
G01 X2.0924 Y0.4500 Z-0.0042 F144.0
G01 X2.0767 Y0.4500 Z-0.0043 F144.0
G01 X2.0611 Y0.4500 Z-0.0045 F144.0
G01 X2.0455 Y0.4500 Z-0.0046 F144.0
G01 X2.0298 Y0.4500 Z-0.0047 F144.0
G01 X2.0142 Y0.4500 Z-0.0048 F144.0
G01 X1.9985 Y0.4500 Z-0.0050 F144.0
G01 X1.9829 Y0.4500 Z-0.0051 F144.0
G01 X1.9673 Y0.4500 Z-0.0052 F144.0
G01 X1.9516 Y0.4500 Z-0.0053 F144.0
G01 X1.9360 Y0.4500 Z-0.0054 F144.0
G01 X1.9204 Y0.4500 Z-0.0056 F144.0
G01 X1.9047 Y0.4500 Z-0.0057 F144.0
G01 X1.8891 Y0.4500 Z-0.0058 F144.0
G01 X1.8735 Y0.4500 Z-0.0059 F144.0
G01 X1.8578 Y0.4500 Z-0.0060 F144.0
G01 X1.8422 Y0.4500 Z-0.0061 F144.0
G01 X1.8265 Y0.4500 Z-0.0062 F144.0
G01 X1.8109 Y0.4500 Z-0.0064 F144.0
G01 X1.7953 Y0.4500 Z-0.0065 F144.0
G01 X1.7796 Y0.4500 Z-0.0066 F144.0
G01 X1.7640 Y0.4500 Z-0.0067 F144.0
G01 X1.7484 Y0.4500 Z-0.0068 F144.0
G01 X1.7327 Y0.4500 Z-0.0069 F144.0
G01 X1.7171 Y0.4500 Z-0.0070 F144.0
G01 X1.7015 Y0.4500 Z-0.0071 F144.0
G01 X1.6858 Y0.4500 Z-0.0072 F144.0
G01 X1.6702 Y0.4500 Z-0.0073 F144.0
G01 X1.6545 Y0.4500 Z-0.0074 F144.0
G01 X1.6389 Y0.4500 Z-0.0075 F144.0
G01 X1.6233 Y0.4500 Z-0.0076 F144.0
G01 X1.6076 Y0.4500 Z-0.0077 F144.0
G01 X1.5920 Y0.4500 Z-0.0078 F144.0
G01 X1.5764 Y0.4500 Z-0.0079 F144.0
G01 X1.5607 Y0.4500 Z-0.0080 F144.0
G01 X1.5451 Y0.4500 Z-0.0081 F144.0
G01 X1.5295 Y0.4500 Z-0.0082 F144.0
G01 X1.5138 Y0.4500 Z-0.0082 F144.0
G01 X1.4982 Y0.4500 Z-0.0083 F144.0
G01 X1.4825 Y0.4500 Z-0.0084 F144.0
G01 X1.4669 Y0.4500 Z-0.0085 F144.0
G01 X1.4513 Y0.4500 Z-0.0086 F144.0
G01 X1.4356 Y0.4500 Z-0.0086 F144.0
G01 X1.4200 Y0.4500 Z-0.0087 F144.0
G01 X1.4044 Y0.4500 Z-0.0088 F144.0
G01 X1.3887 Y0.4500 Z-0.0089 F144.0
G01 X1.3731 Y0.4500 Z-0.0089 F144.0
G01 X1.3575 Y0.4500 Z-0.0090 F144.0
G01 X1.3418 Y0.4500 Z-0.0091 F144.0
G01 X1.3262 Y0.4500 Z-0.0092 F144.0
G01 X1.3105 Y0.4500 Z-0.0092 F144.0
G01 X1.2949 Y0.4500 Z-0.0093 F144.0
G01 X1.2793 Y0.4500 Z-0.0093 F144.0
G01 X1.2636 Y0.4500 Z-0.0094 F144.0
G01 X1.2480 Y0.4500 Z-0.0095 F144.0
G01 X1.2324 Y0.4500 Z-0.0095 F144.0
G01 X1.2167 Y0.4500 Z-0.0096 F144.0
G01 X1.2011 Y0.4500 Z-0.0096 F144.0
G01 X1.1855 Y0.4500 Z-0.0097 F144.0
G01 X1.1698 Y0.4500 Z-0.0097 F144.0
G01 X1.1542 Y0.4500 Z-0.0098 F144.0
G01 X1.1385 Y0.4500 Z-0.0098 F144.0
G01 X1.1229 Y0.4500 Z-0.0099 F144.0
G01 X1.1073 Y0.4500 Z-0.0099 F144.0
G01 X1.0916 Y0.4500 Z-0.0100 F144.0
G01 X1.0760 Y0.4500 Z-0.0100 F144.0
G01 X1.0604 Y0.4500 Z-0.0100 F144.0
G01 X1.0447 Y0.4500 Z-0.0101 F144.0
G01 X1.0291 Y0.4500 Z-0.0101 F144.0
G01 X1.0135 Y0.4500 Z-0.0101 F144.0
G01 X0.9978 Y0.4500 Z-0.0102 F144.0
G01 X0.9822 Y0.4500 Z-0.0102 F144.0
G01 X0.9665 Y0.4500 Z-0.0102 F144.0
G01 X0.9509 Y0.4500 Z-0.0103 F144.0
G01 X0.9353 Y0.4500 Z-0.0103 F144.0
G01 X0.9196 Y0.4500 Z-0.0103 F144.0
G01 X0.9040 Y0.4500 Z-0.0103 F144.0
G01 X0.8884 Y0.4500 Z-0.0104 F144.0
G01 X0.8727 Y0.4500 Z-0.0104 F144.0
G01 X0.8571 Y0.4500 Z-0.0104 F144.0
G01 X0.8415 Y0.4500 Z-0.0104 F144.0
G01 X0.8258 Y0.4500 Z-0.0104 F144.0
G01 X0.8102 Y0.4500 Z-0.0104 F144.0
G01 X0.7945 Y0.4500 Z-0.0105 F144.0
G01 X0.7789 Y0.4500 Z-0.0105 F144.0
G01 X0.7633 Y0.4500 Z-0.0105 F144.0
G01 X0.7476 Y0.4500 Z-0.0105 F144.0
G01 X0.7320 Y0.4500 Z-0.0105 F144.0
G01 X0.7164 Y0.4500 Z-0.0105 F144.0
G01 X0.7007 Y0.4500 Z-0.0105 F144.0
G01 X0.6851 Y0.4500 Z-0.0105 F144.0
G01 X0.6695 Y0.4500 Z-0.0105 F144.0
G01 X0.6538 Y0.4500 Z-0.0105 F144.0
G01 X0.6382 Y0.4500 Z-0.0105 F144.0
G01 X0.6225 Y0.4500 Z-0.0105 F144.0
G01 X0.6069 Y0.4500 Z-0.0105 F144.0
G01 X0.5913 Y0.4500 Z-0.0105 F144.0
G01 X0.5756 Y0.4500 Z-0.0105 F144.0
G01 X0.5600 Y0.4500 Z-0.0105 F144.0
G01 X0.5444 Y0.4500 Z-0.0105 F144.0
G01 X0.5287 Y0.4500 Z-0.0105 F144.0
G01 X0.5131 Y0.4500 Z-0.0105 F144.0
G01 X0.4975 Y0.4500 Z-0.0105 F144.0
G01 X0.4818 Y0.4500 Z-0.0105 F144.0
G01 X0.4662 Y0.4500 Z-0.0105 F144.0
G01 X0.4505 Y0.4500 Z-0.0105 F144.0
G01 X0.4349 Y0.4500 Z-0.0105 F144.0
G01 X0.4193 Y0.4500 Z-0.0105 F144.0
G01 X0.4036 Y0.4500 Z-0.0105 F144.0
G01 X0.3880 Y0.4500 Z-0.0105 F144.0
G01 X0.3724 Y0.4500 Z-0.0105 F144.0
G01 X0.3567 Y0.4500 Z-0.0105 F144.0
G01 X0.3411 Y0.4500 Z-0.0104 F144.0
G01 X0.3255 Y0.4500 Z-0.0104 F144.0
G01 X0.3098 Y0.4500 Z-0.0104 F144.0
G01 X0.2942 Y0.4500 Z-0.0104 F144.0
G01 X0.2785 Y0.4500 Z-0.0104 F144.0
G01 X0.2629 Y0.4500 Z-0.0104 F144.0
G01 X0.2473 Y0.4500 Z-0.0104 F144.0
G01 X0.2316 Y0.4500 Z-0.0104 F144.0
G01 X0.2160 Y0.4500 Z-0.0104 F144.0
G01 X0.2004 Y0.4500 Z-0.0104 F144.0
G01 X0.1847 Y0.4500 Z-0.0104 F144.0
G01 X0.1691 Y0.4500 Z-0.0104 F144.0
G01 X0.1535 Y0.4500 Z-0.0104 F144.0
G01 X0.1378 Y0.4500 Z-0.0104 F144.0
G01 X0.1222 Y0.4500 Z-0.0104 F144.0
G01 X0.1065 Y0.4500 Z-0.0104 F144.0
G01 X0.0909 Y0.4500 Z-0.0104 F144.0
G01 X0.0753 Y0.4500 Z-0.0104 F144.0
G01 X0.0596 Y0.4500 Z-0.0103 F144.0
G01 X0.0440 Y0.4500 Z-0.0103 F144.0
G01 X0.0284 Y0.4500 Z-0.0103 F144.0
G01 X0.0127 Y0.4500 Z-0.0103 F144.0
G01 X-0.0029 Y0.4500 Z-0.0660 F144.0
G01 X-0.0185 Y0.4500 Z-0.0660 F144.0
G01 X-0.0342 Y0.4500 Z-0.0660 F144.0
G01 X-0.0498 Y0.4500 Z-0.0660 F144.0
G01 X-0.0655 Y0.4500 Z-0.0660 F144.0
G01 X-0.0811 Y0.4500 Z-0.0660 F144.0
G01 X-0.0967 Y0.4500 Z-0.0660 F144.0
G01 X-0.1124 Y0.4500 Z-0.0660 F144.0
G01 X-0.1280 Y0.4500 Z-0.0660 F144.0
G01 X-0.1436 Y0.4500 Z-0.0660 F144.0
G01 X-0.1593 Y0.4500 Z-0.0660 F144.0
G01 X-0.1749 Y0.4500 Z-0.0660 F144.0
G01 X-0.1905 Y0.4500 Z-0.0660 F144.0
G01 X-0.2062 Y0.4500 Z-0.0660 F144.0
G01 X-0.2218 Y0.4500 Z-0.0660 F144.0
G01 X-0.2375 Y0.4500 Z-0.0660 F144.0
G01 X-0.2531 Y0.4500 Z-0.0660 F144.0
G01 X-0.2687 Y0.4500 Z-0.0660 F144.0
G01 X-0.2844 Y0.4500 Z-0.0660 F144.0
G01 X-0.3000 Y0.4500 Z-0.0660 F144.0
G01 Z0.2000 F180.0  (lift)
G01 X-0.3000 Y0.6000 F180.0  (row Y=0.600)
G01 Z-0.0660 F20.0  (entry plunge (outside stock))
G01 X-0.3000 Y0.6000 Z-0.0660 F144.0
G01 X-0.2844 Y0.6000 Z-0.0660 F144.0
G01 X-0.2687 Y0.6000 Z-0.0660 F144.0
G01 X-0.2531 Y0.6000 Z-0.0660 F144.0
G01 X-0.2375 Y0.6000 Z-0.0660 F144.0
G01 X-0.2218 Y0.6000 Z-0.0660 F144.0
G01 X-0.2062 Y0.6000 Z-0.0660 F144.0
G01 X-0.1905 Y0.6000 Z-0.0660 F144.0
G01 X-0.1749 Y0.6000 Z-0.0660 F144.0
G01 X-0.1593 Y0.6000 Z-0.0660 F144.0
G01 X-0.1436 Y0.6000 Z-0.0660 F144.0
G01 X-0.1280 Y0.6000 Z-0.0660 F144.0
G01 X-0.1124 Y0.6000 Z-0.0660 F144.0
G01 X-0.0967 Y0.6000 Z-0.0660 F144.0
G01 X-0.0811 Y0.6000 Z-0.0660 F144.0
G01 X-0.0655 Y0.6000 Z-0.0660 F144.0
G01 X-0.0498 Y0.6000 Z-0.0660 F144.0
G01 X-0.0342 Y0.6000 Z-0.0660 F144.0
G01 X-0.0185 Y0.6000 Z-0.0660 F144.0
G01 X-0.0029 Y0.6000 Z-0.0660 F144.0
G01 X0.0127 Y0.6000 Z-0.0123 F144.0
G01 X0.0284 Y0.6000 Z-0.0123 F144.0
G01 X0.0440 Y0.6000 Z-0.0123 F144.0
G01 X0.0596 Y0.6000 Z-0.0123 F144.0
G01 X0.0753 Y0.6000 Z-0.0123 F144.0
G01 X0.0909 Y0.6000 Z-0.0123 F144.0
G01 X0.1065 Y0.6000 Z-0.0123 F144.0
G01 X0.1222 Y0.6000 Z-0.0123 F144.0
G01 X0.1378 Y0.6000 Z-0.0124 F144.0
G01 X0.1535 Y0.6000 Z-0.0124 F144.0
G01 X0.1691 Y0.6000 Z-0.0124 F144.0
G01 X0.1847 Y0.6000 Z-0.0124 F144.0
G01 X0.2004 Y0.6000 Z-0.0124 F144.0
G01 X0.2160 Y0.6000 Z-0.0124 F144.0
G01 X0.2316 Y0.6000 Z-0.0124 F144.0
G01 X0.2473 Y0.6000 Z-0.0124 F144.0
G01 X0.2629 Y0.6000 Z-0.0125 F144.0
G01 X0.2785 Y0.6000 Z-0.0125 F144.0
G01 X0.2942 Y0.6000 Z-0.0125 F144.0
G01 X0.3098 Y0.6000 Z-0.0125 F144.0
G01 X0.3255 Y0.6000 Z-0.0125 F144.0
G01 X0.3411 Y0.6000 Z-0.0126 F144.0
G01 X0.3567 Y0.6000 Z-0.0126 F144.0
G01 X0.3724 Y0.6000 Z-0.0126 F144.0
G01 X0.3880 Y0.6000 Z-0.0126 F144.0
G01 X0.4036 Y0.6000 Z-0.0126 F144.0
G01 X0.4193 Y0.6000 Z-0.0127 F144.0
G01 X0.4349 Y0.6000 Z-0.0127 F144.0
G01 X0.4505 Y0.6000 Z-0.0127 F144.0
G01 X0.4662 Y0.6000 Z-0.0127 F144.0
G01 X0.4818 Y0.6000 Z-0.0127 F144.0
G01 X0.4975 Y0.6000 Z-0.0128 F144.0
G01 X0.5131 Y0.6000 Z-0.0128 F144.0
G01 X0.5287 Y0.6000 Z-0.0128 F144.0
G01 X0.5444 Y0.6000 Z-0.0128 F144.0
G01 X0.5600 Y0.6000 Z-0.0128 F144.0
G01 X0.5756 Y0.6000 Z-0.0129 F144.0
G01 X0.5913 Y0.6000 Z-0.0129 F144.0
G01 X0.6069 Y0.6000 Z-0.0129 F144.0
G01 X0.6225 Y0.6000 Z-0.0129 F144.0
G01 X0.6382 Y0.6000 Z-0.0129 F144.0
G01 X0.6538 Y0.6000 Z-0.0129 F144.0
G01 X0.6695 Y0.6000 Z-0.0129 F144.0
G01 X0.6851 Y0.6000 Z-0.0130 F144.0
G01 X0.7007 Y0.6000 Z-0.0130 F144.0
G01 X0.7164 Y0.6000 Z-0.0130 F144.0
G01 X0.7320 Y0.6000 Z-0.0130 F144.0
G01 X0.7476 Y0.6000 Z-0.0130 F144.0
G01 X0.7633 Y0.6000 Z-0.0130 F144.0
G01 X0.7789 Y0.6000 Z-0.0130 F144.0
G01 X0.7945 Y0.6000 Z-0.0130 F144.0
G01 X0.8102 Y0.6000 Z-0.0130 F144.0
G01 X0.8258 Y0.6000 Z-0.0130 F144.0
G01 X0.8415 Y0.6000 Z-0.0130 F144.0
G01 X0.8571 Y0.6000 Z-0.0130 F144.0
G01 X0.8727 Y0.6000 Z-0.0130 F144.0
G01 X0.8884 Y0.6000 Z-0.0130 F144.0
G01 X0.9040 Y0.6000 Z-0.0129 F144.0
G01 X0.9196 Y0.6000 Z-0.0129 F144.0
G01 X0.9353 Y0.6000 Z-0.0129 F144.0
G01 X0.9509 Y0.6000 Z-0.0129 F144.0
G01 X0.9665 Y0.6000 Z-0.0129 F144.0
G01 X0.9822 Y0.6000 Z-0.0129 F144.0
G01 X0.9978 Y0.6000 Z-0.0128 F144.0
G01 X1.0135 Y0.6000 Z-0.0128 F144.0
G01 X1.0291 Y0.6000 Z-0.0128 F144.0
G01 X1.0447 Y0.6000 Z-0.0128 F144.0
G01 X1.0604 Y0.6000 Z-0.0127 F144.0
G01 X1.0760 Y0.6000 Z-0.0127 F144.0
G01 X1.0916 Y0.6000 Z-0.0127 F144.0
G01 X1.1073 Y0.6000 Z-0.0126 F144.0
G01 X1.1229 Y0.6000 Z-0.0126 F144.0
G01 X1.1385 Y0.6000 Z-0.0125 F144.0
G01 X1.1542 Y0.6000 Z-0.0125 F144.0
G01 X1.1698 Y0.6000 Z-0.0124 F144.0
G01 X1.1855 Y0.6000 Z-0.0124 F144.0
G01 X1.2011 Y0.6000 Z-0.0124 F144.0
G01 X1.2167 Y0.6000 Z-0.0123 F144.0
G01 X1.2324 Y0.6000 Z-0.0122 F144.0
G01 X1.2480 Y0.6000 Z-0.0122 F144.0
G01 X1.2636 Y0.6000 Z-0.0121 F144.0
G01 X1.2793 Y0.6000 Z-0.0121 F144.0
G01 X1.2949 Y0.6000 Z-0.0120 F144.0
G01 X1.3105 Y0.6000 Z-0.0119 F144.0
G01 X1.3262 Y0.6000 Z-0.0119 F144.0
G01 X1.3418 Y0.6000 Z-0.0118 F144.0
G01 X1.3575 Y0.6000 Z-0.0117 F144.0
G01 X1.3731 Y0.6000 Z-0.0117 F144.0
G01 X1.3887 Y0.6000 Z-0.0116 F144.0
G01 X1.4044 Y0.6000 Z-0.0115 F144.0
G01 X1.4200 Y0.6000 Z-0.0114 F144.0
G01 X1.4356 Y0.6000 Z-0.0113 F144.0
G01 X1.4513 Y0.6000 Z-0.0113 F144.0
G01 X1.4669 Y0.6000 Z-0.0112 F144.0
G01 X1.4825 Y0.6000 Z-0.0111 F144.0
G01 X1.4982 Y0.6000 Z-0.0110 F144.0
G01 X1.5138 Y0.6000 Z-0.0109 F144.0
G01 X1.5295 Y0.6000 Z-0.0108 F144.0
G01 X1.5451 Y0.6000 Z-0.0107 F144.0
G01 X1.5607 Y0.6000 Z-0.0106 F144.0
G01 X1.5764 Y0.6000 Z-0.0105 F144.0
G01 X1.5920 Y0.6000 Z-0.0104 F144.0
G01 X1.6076 Y0.6000 Z-0.0103 F144.0
G01 X1.6233 Y0.6000 Z-0.0102 F144.0
G01 X1.6389 Y0.6000 Z-0.0101 F144.0
G01 X1.6545 Y0.6000 Z-0.0100 F144.0
G01 X1.6702 Y0.6000 Z-0.0099 F144.0
G01 X1.6858 Y0.6000 Z-0.0098 F144.0
G01 X1.7015 Y0.6000 Z-0.0097 F144.0
G01 X1.7171 Y0.6000 Z-0.0096 F144.0
G01 X1.7327 Y0.6000 Z-0.0095 F144.0
G01 X1.7484 Y0.6000 Z-0.0093 F144.0
G01 X1.7640 Y0.6000 Z-0.0092 F144.0
G01 X1.7796 Y0.6000 Z-0.0091 F144.0
G01 X1.7953 Y0.6000 Z-0.0090 F144.0
G01 X1.8109 Y0.6000 Z-0.0089 F144.0
G01 X1.8265 Y0.6000 Z-0.0088 F144.0
G01 X1.8422 Y0.6000 Z-0.0086 F144.0
G01 X1.8578 Y0.6000 Z-0.0085 F144.0
G01 X1.8735 Y0.6000 Z-0.0084 F144.0
G01 X1.8891 Y0.6000 Z-0.0083 F144.0
G01 X1.9047 Y0.6000 Z-0.0081 F144.0
G01 X1.9204 Y0.6000 Z-0.0080 F144.0
G01 X1.9360 Y0.6000 Z-0.0079 F144.0
G01 X1.9516 Y0.6000 Z-0.0077 F144.0
G01 X1.9673 Y0.6000 Z-0.0076 F144.0
G01 X1.9829 Y0.6000 Z-0.0075 F144.0
G01 X1.9985 Y0.6000 Z-0.0074 F144.0
G01 X2.0142 Y0.6000 Z-0.0072 F144.0
G01 X2.0298 Y0.6000 Z-0.0071 F144.0
G01 X2.0455 Y0.6000 Z-0.0070 F144.0
G01 X2.0611 Y0.6000 Z-0.0068 F144.0
G01 X2.0767 Y0.6000 Z-0.0067 F144.0
G01 X2.0924 Y0.6000 Z-0.0066 F144.0
G01 X2.1080 Y0.6000 Z-0.0064 F144.0
G01 X2.1236 Y0.6000 Z-0.0063 F144.0
G01 X2.1393 Y0.6000 Z-0.0062 F144.0
G01 X2.1549 Y0.6000 Z-0.0060 F144.0
G01 X2.1705 Y0.6000 Z-0.0059 F144.0
G01 X2.1862 Y0.6000 Z-0.0057 F144.0
G01 X2.2018 Y0.6000 Z-0.0056 F144.0
G01 X2.2175 Y0.6000 Z-0.0055 F144.0
G01 X2.2331 Y0.6000 Z-0.0053 F144.0
G01 X2.2487 Y0.6000 Z-0.0052 F144.0
G01 X2.2644 Y0.6000 Z-0.0051 F144.0
G01 X2.2800 Y0.6000 Z-0.0049 F144.0
G01 X2.2956 Y0.6000 Z-0.0048 F144.0
G01 X2.3113 Y0.6000 Z-0.0046 F144.0
G01 X2.3269 Y0.6000 Z-0.0045 F144.0
G01 X2.3425 Y0.6000 Z-0.0044 F144.0
G01 X2.3582 Y0.6000 Z-0.0042 F144.0
G01 X2.3738 Y0.6000 Z-0.0041 F144.0
G01 X2.3895 Y0.6000 Z-0.0039 F144.0
G01 X2.4051 Y0.6000 Z-0.0038 F144.0
G01 X2.4207 Y0.6000 Z-0.0037 F144.0
G01 X2.4364 Y0.6000 Z-0.0035 F144.0
G01 X2.4520 Y0.6000 Z-0.0034 F144.0
G01 X2.4676 Y0.6000 Z-0.0032 F144.0
G01 X2.4833 Y0.6000 Z-0.0031 F144.0
G01 X2.4989 Y0.6000 Z-0.0030 F144.0
G01 X2.5145 Y0.6000 Z-0.0028 F144.0
G01 X2.5302 Y0.6000 Z-0.0027 F144.0
G01 X2.5458 Y0.6000 Z-0.0025 F144.0
G01 X2.5615 Y0.6000 Z-0.0024 F144.0
G01 X2.5771 Y0.6000 Z-0.0022 F144.0
G01 X2.5927 Y0.6000 Z-0.0021 F144.0
G01 X2.6084 Y0.6000 Z-0.0019 F144.0
G01 X2.6240 Y0.6000 Z-0.0018 F144.0
G01 X2.6396 Y0.6000 Z-0.0016 F144.0
G01 X2.6553 Y0.6000 Z-0.0015 F144.0
G01 X2.6709 Y0.6000 Z-0.0013 F144.0
G01 X2.6865 Y0.6000 Z-0.0012 F144.0
G01 X2.7022 Y0.6000 Z-0.0010 F144.0
G01 X2.7178 Y0.6000 Z-0.0009 F144.0
G01 X2.7335 Y0.6000 Z-0.0007 F144.0
G01 X2.7491 Y0.6000 Z-0.0006 F144.0
G01 X2.7647 Y0.6000 Z-0.0004 F144.0
G01 X2.7804 Y0.6000 Z-0.0002 F144.0
G01 X2.7960 Y0.6000 Z-0.0001 F144.0
G01 X2.8116 Y0.6000 Z0.0000 F144.0
G01 X2.8273 Y0.6000 Z0.0000 F144.0
G01 X2.8429 Y0.6000 Z0.0000 F144.0
G01 X2.8585 Y0.6000 Z0.0000 F144.0
G01 X2.8742 Y0.6000 Z0.0000 F144.0
G01 X2.8898 Y0.6000 Z0.0000 F144.0
G01 X2.9055 Y0.6000 Z0.0000 F144.0
G01 X2.9211 Y0.6000 Z0.0000 F144.0
G01 X2.9367 Y0.6000 Z0.0000 F144.0
G01 X2.9524 Y0.6000 Z0.0000 F144.0
G01 X2.9680 Y0.6000 Z0.0000 F144.0
G01 X2.9836 Y0.6000 Z0.0000 F144.0
G01 X2.9993 Y0.6000 Z0.0000 F144.0
G01 X3.0149 Y0.6000 Z0.0000 F144.0
G01 X3.0305 Y0.6000 Z0.0000 F144.0
G01 X3.0462 Y0.6000 Z0.0000 F144.0
G01 X3.0618 Y0.6000 Z0.0000 F144.0
G01 X3.0775 Y0.6000 Z0.0000 F144.0
G01 X3.0931 Y0.6000 Z0.0000 F144.0
G01 X3.1087 Y0.6000 Z0.0000 F144.0
G01 X3.1244 Y0.6000 Z0.0000 F144.0
G01 X3.1400 Y0.6000 Z0.0000 F144.0
G01 X3.1556 Y0.6000 Z0.0000 F144.0
G01 X3.1713 Y0.6000 Z0.0000 F144.0
G01 X3.1869 Y0.6000 Z0.0000 F144.0
G01 X3.2025 Y0.6000 Z0.0000 F144.0
G01 X3.2182 Y0.6000 Z0.0000 F144.0
G01 X3.2338 Y0.6000 Z0.0000 F144.0
G01 X3.2495 Y0.6000 Z0.0000 F144.0
G01 X3.2651 Y0.6000 Z0.0000 F144.0
G01 X3.2807 Y0.6000 Z0.0000 F144.0
G01 X3.2964 Y0.6000 Z0.0000 F144.0
G01 X3.3120 Y0.6000 Z0.0000 F144.0
G01 X3.3276 Y0.6000 Z0.0000 F144.0
G01 X3.3433 Y0.6000 Z0.0000 F144.0
G01 X3.3589 Y0.6000 Z0.0000 F144.0
G01 X3.3745 Y0.6000 Z0.0000 F144.0
G01 X3.3902 Y0.6000 Z0.0000 F144.0
G01 X3.4058 Y0.6000 Z0.0000 F144.0
G01 X3.4215 Y0.6000 Z0.0000 F144.0
G01 X3.4371 Y0.6000 Z0.0000 F144.0
G01 X3.4527 Y0.6000 Z0.0000 F144.0
G01 X3.4684 Y0.6000 Z0.0000 F144.0
G01 X3.4840 Y0.6000 Z0.0000 F144.0
G01 X3.4996 Y0.6000 Z0.0000 F144.0
G01 X3.5153 Y0.6000 Z0.0000 F144.0
G01 X3.5309 Y0.6000 Z0.0000 F144.0
G01 X3.5465 Y0.6000 Z0.0000 F144.0
G01 X3.5622 Y0.6000 Z0.0000 F144.0
G01 X3.5778 Y0.6000 Z0.0000 F144.0
G01 X3.5935 Y0.6000 Z0.0000 F144.0
G01 X3.6091 Y0.6000 Z0.0000 F144.0
G01 X3.6247 Y0.6000 Z0.0000 F144.0
G01 X3.6404 Y0.6000 Z0.0000 F144.0
G01 X3.6560 Y0.6000 Z0.0000 F144.0
G01 X3.6716 Y0.6000 Z0.0000 F144.0
G01 X3.6873 Y0.6000 Z0.0000 F144.0
G01 X3.7029 Y0.6000 Z0.0000 F144.0
G01 X3.7185 Y0.6000 Z0.0000 F144.0
G01 X3.7342 Y0.6000 Z0.0000 F144.0
G01 X3.7498 Y0.6000 Z0.0000 F144.0
G01 X3.7655 Y0.6000 Z0.0000 F144.0
G01 X3.7811 Y0.6000 Z0.0000 F144.0
G01 X3.7967 Y0.6000 Z0.0000 F144.0
G01 X3.8124 Y0.6000 Z0.0000 F144.0
G01 X3.8280 Y0.6000 Z0.0000 F144.0
G01 X3.8436 Y0.6000 Z0.0000 F144.0
G01 X3.8593 Y0.6000 Z0.0000 F144.0
G01 X3.8749 Y0.6000 Z0.0000 F144.0
G01 X3.8905 Y0.6000 Z0.0000 F144.0
G01 X3.9062 Y0.6000 Z0.0000 F144.0
G01 X3.9218 Y0.6000 Z0.0000 F144.0
G01 X3.9375 Y0.6000 Z0.0000 F144.0
G01 X3.9531 Y0.6000 Z0.0000 F144.0
G01 X3.9687 Y0.6000 Z0.0000 F144.0
G01 X3.9844 Y0.6000 Z0.0000 F144.0
G01 X4.0000 Y0.6000 Z0.0000 F144.0
G01 X4.0156 Y0.6000 Z0.0000 F144.0
G01 X4.0313 Y0.6000 Z0.0000 F144.0
G01 X4.0469 Y0.6000 Z0.0000 F144.0
G01 X4.0625 Y0.6000 Z0.0000 F144.0
G01 X4.0782 Y0.6000 Z0.0000 F144.0
G01 X4.0938 Y0.6000 Z0.0000 F144.0
G01 X4.1095 Y0.6000 Z0.0000 F144.0
G01 X4.1251 Y0.6000 Z0.0000 F144.0
G01 X4.1407 Y0.6000 Z0.0000 F144.0
G01 X4.1564 Y0.6000 Z0.0000 F144.0
G01 X4.1720 Y0.6000 Z0.0000 F144.0
G01 X4.1876 Y0.6000 Z0.0000 F144.0
G01 X4.2033 Y0.6000 Z0.0000 F144.0
G01 X4.2189 Y0.6000 Z0.0000 F144.0
G01 X4.2345 Y0.6000 Z0.0000 F144.0
G01 X4.2502 Y0.6000 Z0.0000 F144.0
G01 X4.2658 Y0.6000 Z0.0000 F144.0
G01 X4.2815 Y0.6000 Z0.0000 F144.0
G01 X4.2971 Y0.6000 Z0.0000 F144.0
G01 X4.3127 Y0.6000 Z0.0000 F144.0
G01 X4.3284 Y0.6000 Z0.0000 F144.0
G01 X4.3440 Y0.6000 Z0.0000 F144.0
G01 X4.3596 Y0.6000 Z0.0000 F144.0
G01 X4.3753 Y0.6000 Z0.0000 F144.0
G01 X4.3909 Y0.6000 Z0.0000 F144.0
G01 X4.4065 Y0.6000 Z0.0000 F144.0
G01 X4.4222 Y0.6000 Z0.0000 F144.0
G01 X4.4378 Y0.6000 Z0.0000 F144.0
G01 X4.4535 Y0.6000 Z0.0000 F144.0
G01 X4.4691 Y0.6000 Z0.0000 F144.0
G01 X4.4847 Y0.6000 Z0.0000 F144.0
G01 X4.5004 Y0.6000 Z0.0000 F144.0
G01 X4.5160 Y0.6000 Z0.0000 F144.0
G01 X4.5316 Y0.6000 Z0.0000 F144.0
G01 X4.5473 Y0.6000 Z0.0000 F144.0
G01 X4.5629 Y0.6000 Z0.0000 F144.0
G01 X4.5785 Y0.6000 Z0.0000 F144.0
G01 X4.5942 Y0.6000 Z0.0000 F144.0
G01 X4.6098 Y0.6000 Z0.0000 F144.0
G01 X4.6255 Y0.6000 Z0.0000 F144.0
G01 X4.6411 Y0.6000 Z0.0000 F144.0
G01 X4.6567 Y0.6000 Z0.0000 F144.0
G01 X4.6724 Y0.6000 Z0.0000 F144.0
G01 X4.6880 Y0.6000 Z0.0000 F144.0
G01 X4.7036 Y0.6000 Z0.0000 F144.0
G01 X4.7193 Y0.6000 Z0.0000 F144.0
G01 X4.7349 Y0.6000 Z0.0000 F144.0
G01 X4.7505 Y0.6000 Z0.0000 F144.0
G01 X4.7662 Y0.6000 Z0.0000 F144.0
G01 X4.7818 Y0.6000 Z0.0000 F144.0
G01 X4.7975 Y0.6000 Z0.0000 F144.0
G01 X4.8131 Y0.6000 Z0.0000 F144.0
G01 X4.8287 Y0.6000 Z0.0000 F144.0
G01 X4.8444 Y0.6000 Z0.0000 F144.0
G01 X4.8600 Y0.6000 Z0.0000 F144.0
G01 X4.8756 Y0.6000 Z0.0000 F144.0
G01 X4.8913 Y0.6000 Z0.0000 F144.0
G01 X4.9069 Y0.6000 Z0.0000 F144.0
G01 X4.9225 Y0.6000 Z0.0000 F144.0
G01 X4.9382 Y0.6000 Z0.0000 F144.0
G01 X4.9538 Y0.6000 Z0.0000 F144.0
G01 X4.9695 Y0.6000 Z0.0000 F144.0
G01 X4.9851 Y0.6000 Z0.0000 F144.0
G01 X5.0007 Y0.6000 Z0.0000 F144.0
G01 X5.0164 Y0.6000 Z0.0000 F144.0
G01 X5.0320 Y0.6000 Z0.0000 F144.0
G01 X5.0476 Y0.6000 Z0.0000 F144.0
G01 X5.0633 Y0.6000 Z0.0000 F144.0
G01 X5.0789 Y0.6000 Z0.0000 F144.0
G01 X5.0945 Y0.6000 Z0.0000 F144.0
G01 X5.1102 Y0.6000 Z0.0000 F144.0
G01 X5.1258 Y0.6000 Z0.0000 F144.0
G01 X5.1415 Y0.6000 Z0.0000 F144.0
G01 X5.1571 Y0.6000 Z0.0000 F144.0
G01 X5.1727 Y0.6000 Z0.0000 F144.0
G01 X5.1884 Y0.6000 Z0.0000 F144.0
G01 X5.2040 Y0.6000 Z0.0000 F144.0
G01 X5.2196 Y0.6000 Z0.0000 F144.0
G01 X5.2353 Y0.6000 Z0.0000 F144.0
G01 X5.2509 Y0.6000 Z0.0000 F144.0
G01 X5.2665 Y0.6000 Z0.0000 F144.0
G01 X5.2822 Y0.6000 Z0.0000 F144.0
G01 X5.2978 Y0.6000 Z0.0000 F144.0
G01 X5.3135 Y0.6000 Z0.0000 F144.0
G01 X5.3291 Y0.6000 Z0.0000 F144.0
G01 X5.3447 Y0.6000 Z0.0000 F144.0
G01 X5.3604 Y0.6000 Z0.0000 F144.0
G01 X5.3760 Y0.6000 Z0.0000 F144.0
G01 X5.3916 Y0.6000 Z0.0000 F144.0
G01 X5.4073 Y0.6000 Z0.0000 F144.0
G01 X5.4229 Y0.6000 Z0.0000 F144.0
G01 X5.4385 Y0.6000 Z0.0000 F144.0
G01 X5.4542 Y0.6000 Z0.0000 F144.0
G01 X5.4698 Y0.6000 Z0.0000 F144.0
G01 X5.4855 Y0.6000 Z0.0000 F144.0
G01 X5.5011 Y0.6000 Z0.0000 F144.0
G01 X5.5167 Y0.6000 Z0.0000 F144.0
G01 X5.5324 Y0.6000 Z0.0000 F144.0
G01 X5.5480 Y0.6000 Z0.0000 F144.0
G01 X5.5636 Y0.6000 Z0.0000 F144.0
G01 X5.5793 Y0.6000 Z0.0000 F144.0
G01 X5.5949 Y0.6000 Z0.0000 F144.0
G01 X5.6105 Y0.6000 Z0.0000 F144.0
G01 X5.6262 Y0.6000 Z0.0000 F144.0
G01 X5.6418 Y0.6000 Z0.0000 F144.0
G01 X5.6575 Y0.6000 Z0.0000 F144.0
G01 X5.6731 Y0.6000 Z0.0000 F144.0
G01 X5.6887 Y0.6000 Z0.0000 F144.0
G01 X5.7044 Y0.6000 Z0.0000 F144.0
G01 X5.7200 Y0.6000 Z0.0000 F144.0
G01 X5.7356 Y0.6000 Z0.0000 F144.0
G01 X5.7513 Y0.6000 Z0.0000 F144.0
G01 X5.7669 Y0.6000 Z0.0000 F144.0
G01 X5.7825 Y0.6000 Z0.0000 F144.0
G01 X5.7982 Y0.6000 Z0.0000 F144.0
G01 X5.8138 Y0.6000 Z0.0000 F144.0
G01 X5.8295 Y0.6000 Z0.0000 F144.0
G01 X5.8451 Y0.6000 Z0.0000 F144.0
G01 X5.8607 Y0.6000 Z0.0000 F144.0
G01 X5.8764 Y0.6000 Z0.0000 F144.0
G01 X5.8920 Y0.6000 Z0.0000 F144.0
G01 X5.9076 Y0.6000 Z0.0000 F144.0
G01 X5.9233 Y0.6000 Z0.0000 F144.0
G01 X5.9389 Y0.6000 Z0.0000 F144.0
G01 X5.9545 Y0.6000 Z0.0000 F144.0
G01 X5.9702 Y0.6000 Z0.0000 F144.0
G01 X5.9858 Y0.6000 Z0.0000 F144.0
G01 X6.0015 Y0.6000 Z0.0000 F144.0
G01 X6.0171 Y0.6000 Z0.0000 F144.0
G01 X6.0327 Y0.6000 Z0.0000 F144.0
G01 X6.0484 Y0.6000 Z0.0000 F144.0
G01 X6.0640 Y0.6000 Z0.0000 F144.0
G01 X6.0796 Y0.6000 Z0.0000 F144.0
G01 X6.0953 Y0.6000 Z0.0000 F144.0
G01 X6.1109 Y0.6000 Z0.0000 F144.0
G01 X6.1265 Y0.6000 Z0.0000 F144.0
G01 X6.1422 Y0.6000 Z0.0000 F144.0
G01 X6.1578 Y0.6000 Z0.0000 F144.0
G01 X6.1735 Y0.6000 Z0.0000 F144.0
G01 X6.1891 Y0.6000 Z0.0000 F144.0
G01 X6.2047 Y0.6000 Z0.0000 F144.0
G01 X6.2204 Y0.6000 Z0.0000 F144.0
G01 X6.2360 Y0.6000 Z0.0000 F144.0
G01 X6.2516 Y0.6000 Z0.0000 F144.0
G01 X6.2673 Y0.6000 Z0.0000 F144.0
G01 X6.2829 Y0.6000 Z0.0000 F144.0
G01 X6.2985 Y0.6000 Z0.0000 F144.0
G01 X6.3142 Y0.6000 Z0.0000 F144.0
G01 X6.3298 Y0.6000 Z0.0000 F144.0
G01 X6.3455 Y0.6000 Z0.0000 F144.0
G01 X6.3611 Y0.6000 Z0.0000 F144.0
G01 X6.3767 Y0.6000 Z0.0000 F144.0
G01 X6.3924 Y0.6000 Z0.0000 F144.0
G01 X6.4080 Y0.6000 Z0.0000 F144.0
G01 X6.4236 Y0.6000 Z0.0000 F144.0
G01 X6.4393 Y0.6000 Z0.0000 F144.0
G01 X6.4549 Y0.6000 Z0.0000 F144.0
G01 X6.4705 Y0.6000 Z0.0000 F144.0
G01 X6.4862 Y0.6000 Z0.0000 F144.0
G01 X6.5018 Y0.6000 Z0.0000 F144.0
G01 X6.5175 Y0.6000 Z0.0000 F144.0
G01 X6.5331 Y0.6000 Z0.0000 F144.0
G01 X6.5487 Y0.6000 Z0.0000 F144.0
G01 X6.5644 Y0.6000 Z0.0000 F144.0
G01 X6.5800 Y0.6000 Z0.0000 F144.0
G01 X6.5956 Y0.6000 Z0.0000 F144.0
G01 X6.6113 Y0.6000 Z0.0000 F144.0
G01 X6.6269 Y0.6000 Z0.0000 F144.0
G01 X6.6425 Y0.6000 Z0.0000 F144.0
G01 X6.6582 Y0.6000 Z0.0000 F144.0
G01 X6.6738 Y0.6000 Z0.0000 F144.0
G01 X6.6895 Y0.6000 Z0.0000 F144.0
G01 X6.7051 Y0.6000 Z0.0000 F144.0
G01 X6.7207 Y0.6000 Z0.0000 F144.0
G01 X6.7364 Y0.6000 Z0.0000 F144.0
G01 X6.7520 Y0.6000 Z0.0000 F144.0
G01 X6.7676 Y0.6000 Z0.0000 F144.0
G01 X6.7833 Y0.6000 Z0.0000 F144.0
G01 X6.7989 Y0.6000 Z0.0000 F144.0
G01 X6.8145 Y0.6000 Z0.0000 F144.0
G01 X6.8302 Y0.6000 Z0.0000 F144.0
G01 X6.8458 Y0.6000 Z0.0000 F144.0
G01 X6.8615 Y0.6000 Z0.0000 F144.0
G01 X6.8771 Y0.6000 Z0.0000 F144.0
G01 X6.8927 Y0.6000 Z0.0000 F144.0
G01 X6.9084 Y0.6000 Z0.0000 F144.0
G01 X6.9240 Y0.6000 Z0.0000 F144.0
G01 X6.9396 Y0.6000 Z0.0000 F144.0
G01 X6.9553 Y0.6000 Z0.0000 F144.0
G01 X6.9709 Y0.6000 Z0.0000 F144.0
G01 X6.9865 Y0.6000 Z0.0000 F144.0
G01 X7.0022 Y0.6000 Z0.0000 F144.0
G01 X7.0178 Y0.6000 Z0.0000 F144.0
G01 X7.0335 Y0.6000 Z0.0000 F144.0
G01 X7.0491 Y0.6000 Z0.0000 F144.0
G01 X7.0647 Y0.6000 Z0.0000 F144.0
G01 X7.0804 Y0.6000 Z0.0000 F144.0
G01 X7.0960 Y0.6000 Z0.0000 F144.0
G01 X7.1116 Y0.6000 Z0.0000 F144.0
G01 X7.1273 Y0.6000 Z0.0000 F144.0
G01 X7.1429 Y0.6000 Z0.0000 F144.0
G01 X7.1585 Y0.6000 Z0.0000 F144.0
G01 X7.1742 Y0.6000 Z0.0000 F144.0
G01 X7.1898 Y0.6000 Z0.0000 F144.0
G01 X7.2055 Y0.6000 Z0.0000 F144.0
G01 X7.2211 Y0.6000 Z0.0000 F144.0
G01 X7.2367 Y0.6000 Z0.0000 F144.0
G01 X7.2524 Y0.6000 Z0.0000 F144.0
G01 X7.2680 Y0.6000 Z0.0000 F144.0
G01 X7.2836 Y0.6000 Z0.0000 F144.0
G01 X7.2993 Y0.6000 Z0.0000 F144.0
G01 X7.3149 Y0.6000 Z0.0000 F144.0
G01 X7.3305 Y0.6000 Z0.0000 F144.0
G01 X7.3462 Y0.6000 Z0.0000 F144.0
G01 X7.3618 Y0.6000 Z0.0000 F144.0
G01 X7.3775 Y0.6000 Z0.0000 F144.0
G01 X7.3931 Y0.6000 Z0.0000 F144.0
G01 X7.4087 Y0.6000 Z0.0000 F144.0
G01 X7.4244 Y0.6000 Z0.0000 F144.0
G01 X7.4400 Y0.6000 Z0.0000 F144.0
G01 X7.4556 Y0.6000 Z0.0000 F144.0
G01 X7.4713 Y0.6000 Z0.0000 F144.0
G01 X7.4869 Y0.6000 Z0.0000 F144.0
G01 X7.5025 Y0.6000 Z0.0000 F144.0
G01 X7.5182 Y0.6000 Z0.0000 F144.0
G01 X7.5338 Y0.6000 Z0.0000 F144.0
G01 X7.5495 Y0.6000 Z0.0000 F144.0
G01 X7.5651 Y0.6000 Z0.0000 F144.0
G01 X7.5807 Y0.6000 Z0.0000 F144.0
G01 X7.5964 Y0.6000 Z0.0000 F144.0
G01 X7.6120 Y0.6000 Z0.0000 F144.0
G01 X7.6276 Y0.6000 Z0.0000 F144.0
G01 X7.6433 Y0.6000 Z0.0000 F144.0
G01 X7.6589 Y0.6000 Z0.0000 F144.0
G01 X7.6745 Y0.6000 Z0.0000 F144.0
G01 X7.6902 Y0.6000 Z0.0000 F144.0
G01 X7.7058 Y0.6000 Z0.0000 F144.0
G01 X7.7215 Y0.6000 Z0.0000 F144.0
G01 X7.7371 Y0.6000 Z0.0000 F144.0
G01 X7.7527 Y0.6000 Z0.0000 F144.0
G01 X7.7684 Y0.6000 Z0.0000 F144.0
G01 X7.7840 Y0.6000 Z0.0000 F144.0
G01 X7.7996 Y0.6000 Z0.0000 F144.0
G01 X7.8153 Y0.6000 Z0.0000 F144.0
G01 X7.8309 Y0.6000 Z0.0000 F144.0
G01 X7.8465 Y0.6000 Z0.0000 F144.0
G01 X7.8622 Y0.6000 Z0.0000 F144.0
G01 X7.8778 Y0.6000 Z0.0000 F144.0
G01 X7.8935 Y0.6000 Z0.0000 F144.0
G01 X7.9091 Y0.6000 Z0.0000 F144.0
G01 X7.9247 Y0.6000 Z0.0000 F144.0
G01 X7.9404 Y0.6000 Z0.0000 F144.0
G01 X7.9560 Y0.6000 Z0.0000 F144.0
G01 X7.9716 Y0.6000 Z0.0000 F144.0
G01 X7.9873 Y0.6000 Z0.0000 F144.0
G01 X8.0029 Y0.6000 Z-0.0660 F144.0
G01 X8.0185 Y0.6000 Z-0.0660 F144.0
G01 X8.0342 Y0.6000 Z-0.0660 F144.0
G01 X8.0498 Y0.6000 Z-0.0660 F144.0
G01 X8.0655 Y0.6000 Z-0.0660 F144.0
G01 X8.0811 Y0.6000 Z-0.0660 F144.0
G01 X8.0967 Y0.6000 Z-0.0660 F144.0
G01 X8.1124 Y0.6000 Z-0.0660 F144.0
G01 X8.1280 Y0.6000 Z-0.0660 F144.0
G01 X8.1436 Y0.6000 Z-0.0660 F144.0
G01 X8.1593 Y0.6000 Z-0.0660 F144.0
G01 X8.1749 Y0.6000 Z-0.0660 F144.0
G01 X8.1905 Y0.6000 Z-0.0660 F144.0
G01 X8.2062 Y0.6000 Z-0.0660 F144.0
G01 X8.2218 Y0.6000 Z-0.0660 F144.0
G01 X8.2375 Y0.6000 Z-0.0660 F144.0
G01 X8.2531 Y0.6000 Z-0.0660 F144.0
G01 X8.2687 Y0.6000 Z-0.0660 F144.0
G01 X8.2844 Y0.6000 Z-0.0660 F144.0
G01 X8.3000 Y0.6000 Z-0.0660 F144.0
G01 Z0.2000 F180.0  (lift)
G01 X8.3000 Y0.7500 F180.0  (row Y=0.750)
G01 Z-0.0660 F20.0  (entry plunge (outside stock))
G01 X8.3000 Y0.7500 Z-0.0660 F144.0
G01 X8.2844 Y0.7500 Z-0.0660 F144.0
G01 X8.2687 Y0.7500 Z-0.0660 F144.0
G01 X8.2531 Y0.7500 Z-0.0660 F144.0
G01 X8.2375 Y0.7500 Z-0.0660 F144.0
G01 X8.2218 Y0.7500 Z-0.0660 F144.0
G01 X8.2062 Y0.7500 Z-0.0660 F144.0
G01 X8.1905 Y0.7500 Z-0.0660 F144.0
G01 X8.1749 Y0.7500 Z-0.0660 F144.0
G01 X8.1593 Y0.7500 Z-0.0660 F144.0
G01 X8.1436 Y0.7500 Z-0.0660 F144.0
G01 X8.1280 Y0.7500 Z-0.0660 F144.0
